I-am-ShahriarKabir/ur5_project/catkin_ws/src/ur5_controller/src/joint_data.csv
time,shoulder_pan_joint,shoulder_lift_joint,elbow_joint,wrist_1_joint,wrist_2_joint,wrist_3_joint
0.728,-0.49323459565739114,0.3095636405492712,-0.005495049032337995,-0.07959029052001831,0.2714145331292661,4.07761800022578
0.735,-0.49323428997643415,0.30956307593635124,-0.0054947534624423255,-0.07958540087490817,0.2713984347057954,4.184391507668933
0.743,-0.4932339404692492,0.30956243520502724,-0.00549441571187792,-0.07957980838920342,0.27138001104162957,4.306333027379284
0.751,-0.4932335924993181,0.30956180111367004,-0.0054940794668265625,-0.07957423218006276,0.27136163418360315,4.428092590621797
0.759,-0.49323324604807084,0.3095611735963022,-0.00549374471468056,-0.07956867211801111,0.27134330378433535,4.549578720586282
0.767,-0.49323290127328345,0.30956055277875194,-0.005493411588390451,-0.07956313040992757,0.2713250277307724,4.670702315845557
0.775,-0.49323255837465485,0.30955993882814425,-0.005493080256393057,-0.07955760965534608,0.2713068153079137,4.791376137192148
0.783,-0.49323221752947877,0.3095593318883676,-0.0054927508683242365,-0.07955211221652814,0.27128867495149667,4.911514596371291
0.791,-0.49323187891808384,0.30955873210647766,-0.005492423576468397,-0.07954664049817328,0.27127061524127694,5.031033667611987
0.799,-0.49323154271719627,0.309558139625592,-0.005492098530129219,-0.07954119686761452,0.27125264461879706,5.149850850924116
0.807,-0.49323120910043894,0.30955755458540324,-0.00549177587602756,-0.07953578366071934,0.2712347714083938,5.267885156832693
0.815,-0.4932308782383137,0.30955697712215624,-0.005491455758281916,-0.07953040318086213,0.27121700381380354,5.385057100024724
0.823,-0.4932305502981045,0.30955640736851997,-0.005491138318323152,-0.07952505769744533,0.2711993499131191,5.501288696708827
0.839,-0.4932299038364638,0.30955529150287653,-0.005490512024022287,-0.0795144806258854,0.2711644148722323,5.730626417042022
0.847,-0.4932295856334594,0.309554745638307,-0.005490203439049601,-0.07950925340382842,0.27114714925129046,5.843584073643571
0.855,-0.4932292709892163,0.3095542079782092,-0.0054898980705955225,-0.07950406990982195,0.2711300283611253,5.9553044493258
0.863,-0.49322896005484385,0.3095536786373163,-0.0054895960465692895,-0.07949893223880711,0.2711130596376874,6.06571705953695
0.871,-0.4932286529782113,0.30955315772677316,-0.005489297492178302,-0.07949384245018365,0.27109625038665275,6.174752917795521
0.879,-0.4932283499043688,0.30955264535468885,-0.005489002530295828,-0.07948880257568103,0.2710796078110027,6.2823431756677754
0.887,-0.49322742808652364,0.30955185544086206,-0.005488180800533371,-0.0794910727770608,0.27108673802532834,6.297349234190529
0.895,-0.4932293158793071,0.3095534788446219,-0.005490007735012625,-0.07949478693649592,0.2711037414641133,6.299595692909934
0.903,-0.493228353292845,0.3095516987979243,-0.005488733112936295,-0.07947356674268402,0.27103092704241494,6.298674187875468
0.911,-0.4932398786507095,0.3095553106369522,-0.00549141028314537,-0.07912882271820276,0.2709993884536326,6.296110962645555
0.919,-0.4932480647955071,0.30955557171226467,-0.0054951416169464196,-0.07869274991307851,0.27074526574678703,6.291495916743464
0.927,-0.4932550085535157,0.30955145848124843,-0.005496685442794025,-0.07854091482847725,0.27081053209961503,6.28407882080593
0.935,-0.4932599333886962,0.30958235579693927,-0.005491502126266035,-0.0785214860290333,0.27073328426808274,6.274675760933188
0.943,-0.4932424708084886,0.30959609442472313,-0.005485095936403006,-0.07903692781134808,0.27070859284088655,6.340785111208093
0.951,-0.49322961629671,0.3095803575940934,-0.0054799482257772425,-0.07924581146844734,0.27059856625818135,6.333112153236104
0.959,-0.49320916032891393,0.30956199726191613,-0.005479504409257707,-0.07982656220767392,0.2705783435379976,6.32301373538727
0.967,-0.4931813128188631,0.30954455713942597,-0.005476830064256255,-0.0804403066082271,0.27045741986392624,6.311677760846988
0.975,-0.49316335817628687,0.3095748816618249,-0.005472834707547669,-0.08093159429299313,0.270219677066458,6.298922885469671
0.983,-0.4931430506985448,0.309586035710514,-0.005465833826605149,-0.08136181255330932,0.26992674666137084,6.2841760643558775
0.991,-0.4931230877969117,0.30959139745074804,-0.005459662113967312,-0.08183741973572811,0.26975262421687685,6.267479727872131
0.999,-0.4930691097398441,0.3095925963549577,-0.005452113269562631,-0.08320326232363051,0.26946844419262206,6.376963464825924
1.007,-0.49295713849096234,0.3096058982851595,-0.0052818278860380374,-0.08220231340594264,0.2649031950503593,6.345787418588562
1.015,-0.4928517161011303,0.3094374200231309,-0.004723122137916036,-0.07870083794194027,0.2587079150411151,6.319320907156687
1.023,-0.4928607807864731,0.3094279161259612,-0.004000153713464627,-0.07464844624306988,0.2542874187932602,6.282207569107107
1.031,-0.49148279813113405,0.3087207042808071,-0.0032203794184466616,-0.07054891734376945,0.2509384803777168,6.346326559710609
1.039,-0.4857806042917936,0.3058148690434894,-0.002485227217102981,-0.06475475144798715,0.2500200669468571,6.312548371830372
1.047,-0.475724078153692,0.3007456958577137,-0.0017953654356936966,-0.05832785299122634,0.24986040433156553,6.281777439780427
1.055,-0.46403283092455005,0.2947560699751737,-0.0005712430519571043,-0.04777154016958107,0.25100664975335985,6.302781419452946
1.063,-0.45139197901042927,0.28844659657458394,0.0018160640944966389,-0.042940453635066156,0.26264072935932514,6.298449545254123
1.071,-0.44008548845049944,0.2825372810987634,0.004099288271749657,-0.04277369535232722,0.26594574887670497,6.335255865783108
1.079,-0.4297988769242842,0.27666862520444724,0.007087644650266789,-0.02781662586740996,0.2624763229873519,6.330123591008186
1.087,-0.41871584865118816,0.2705923566957935,0.010885228621128284,-0.01653245114681745,0.26047027058368943,6.327382098855313
1.095,-0.4071719361950521,0.2645230559929672,0.014959605490091121,-0.01090263295532612,0.2585625909349947,6.3294211746653195
1.103,-0.39576523603675984,0.258536223885125,0.019029790619973674,-0.0052213236236351435,0.25745785347407946,6.326266499614186
1.111,-0.3850198448841171,0.2529979975589747,0.022998658586083742,-0.0024464920199465112,0.2577830986670602,6.326153114498815
1.119,-0.37515310808526525,0.24794032540222055,0.02681232599890393,-0.0005579320022954803,0.2560705195164257,6.322224440447138
1.127,-0.36583734641908006,0.24305533848315974,0.030543221179733848,0.004467560871503018,0.2525057759357976,6.313557562357807
1.135,-0.35615850697492846,0.23803576618600353,0.03431232693526276,0.009090844936842757,0.25308631711175433,6.254009583299438
1.143,-0.3462341131321489,0.2329958317774583,0.03800686436051137,0.010361650414968615,0.2509949424085578,6.314178718747084
1.151,-0.3364648456006236,0.22794751402662783,0.041664300278285715,0.014694847346595097,0.24860089381465666,6.312820738411441
1.159,-0.3264640676562829,0.2228196988543285,0.045339443776977184,0.018756403677023137,0.2484059467180444,6.3115098090982285
1.167,-0.31647392034987387,0.2177501682669547,0.04895768698319358,0.021109906210621254,0.2459306716747367,6.255063116346788
1.175,-0.30662198806648,0.2127164778298738,0.052555581392913275,0.02520422226195329,0.24488923333909796,6.2544915510647465
1.183,-0.2968103632920407,0.20768741377254862,0.05616801669290439,0.030469740790400657,0.2423007551998504,6.238634946811962
1.191,-0.2869557824498239,0.20265129909790858,0.059866262942006365,0.03781557276849057,0.2394278827880134,6.199318735660965
1.199,-0.27696290566362514,0.197650382470691,0.06368997112714148,0.04572132238966642,0.23656652619760887,6.148658624756425
1.207,-0.04533488387812756,-1.5496084688431724,0.02715315026778864,-1.4952614558311237,0.038231428047940774,6.172035956243329
1.215,-0.10785927500793147,-1.5218914647520299,0.05417027150071707,-1.402928139036312,0.08563666955698768,6.088331736107399
1.223,-0.16677552783069327,-1.4955772650165606,0.07774950297189065,-1.3181581520364758,0.137241457154202,6.0249057438248865
1.231,-0.20547588126039873,-1.4741414233562136,0.09816247540688927,-1.2777809329603262,0.1974988156442663,5.978351058610636
1.2389999999999999,-0.22225440808894614,-1.4580600630290608,0.1174780766534349,-1.250890348824567,0.2334856850141911,5.914556461849761
1.2469999999999999,-0.2204202502670496,-1.4468128294695237,0.1348018144890215,-1.2217432136581237,0.22275185914452234,5.858428694596263
1.255,-0.20996238412313062,-1.4362604822502814,0.15077897368465187,-1.1896253567305348,0.2215567740694384,5.80538576395956
1.263,-0.1979263421749673,-1.4235710648896394,0.16538275136413905,-1.1580236399638717,0.21882653506883099,5.755030902993386
1.271,-0.18728021283347118,-1.4074646247867104,0.17878909204213134,-1.1291111352396341,0.21633191745003266,5.705233698237771
1.279,-0.17866327638451196,-1.3878513056903081,0.19104933929954981,-1.097444353266106,0.21452753053668694,5.651240840296213
1.287,-0.170367856846541,-1.3652307615447263,0.20238191640664027,-1.0658229229029161,0.21166947378474177,5.5958456257768425
1.295,-0.1587639197766526,-1.3415562138280643,0.21282317686272378,-1.0325041909619315,0.20918673782887875,5.5384791084503
1.303,-0.14438170273093132,-1.3175266688583616,0.22283799912232993,-0.9938381458755461,0.20647448279637803,5.484369265082938
1.311,-0.1324894192345285,-1.290800882182598,0.23196379891542662,-0.9602671321798524,0.2027934808201204,5.440858267917999
1.319,-0.11972662389233601,-1.2638286517641637,0.2393178864625609,-0.9213355445227429,0.20037203736909248,5.3911075828963
1.327,-0.10677169521622254,-1.2364673823776657,0.2467009058672387,-0.8840738590865089,0.19737065521153419,5.342363309401506
1.335,-0.09718882492284031,-1.2074718995485831,0.25380071043726904,-0.8461983718791184,0.19448500555980885,5.294661882526393
1.343,-0.08979531989947542,-1.177200053500659,0.26067671470917375,-0.8094289911357246,0.1915527389732521,5.248883625009231
1.351,-0.08308713028524473,-1.1461178798101272,0.2673711837828767,-0.7758675148831506,0.18863266526578926,5.206094741239113
1.359,-0.07638312810153014,-1.1144266321136564,0.2738975329792357,-0.7466460224476212,0.185714150445504,5.166949128385408
1.367,-0.07042637807018792,-1.0820584006281049,0.2802572539682382,-0.7131903764711303,0.18367829684442327,5.123692847303051
1.375,-0.06347465890994108,-1.0495457868703646,0.28649159396865187,-0.6781858320489307,0.17971973324613977,5.077768559401477
1.383,-0.05600238277756997,-1.0164561627019504,0.29267278621937987,-0.6493604116932743,0.17700170487911215,5.036813561573295
1.391,-0.04971743031302278,-0.9824637165666665,0.2987454091943702,-0.6136238978197244,0.17445313214360159,4.989325016566209
1.399,-0.042411892029592835,-0.9480692660935777,0.3047650793814398,-0.5817721474905277,0.1710724487894657,4.944241832160888
1.407,-0.03618429865633477,-0.9125765089001643,0.31060217629961073,-0.5500404720287331,0.1688624218574848,4.899264438928936
1.415,-0.03056628551180296,-0.8761662174035543,0.31620793652668944,-0.5157608238437557,0.16423664118965675,4.851498128958495
1.423,-0.025089735485091857,-0.8388333066804945,0.3217011508225118,-0.48549613406336034,0.1620255634531187,4.806920635272977
1.431,-0.019611307219694396,-0.800735766389395,0.327098418437906,-0.45288524251808626,0.15743172065910827,4.759285669032616
1.439,-0.014269771652655194,-0.7617336292679102,0.3324548408020567,-0.4201623671287691,0.15494056232271092,4.7107774982244415
1.447,-0.00842147973542584,-0.7219697763629558,0.33779650385631577,-0.390697627182758,0.15131992095663893,4.664229769186852
1.455,-0.002804592945218509,-0.6812278645162948,0.3430951749886457,-0.3590837450725801,0.14730848949422448,4.614847610713154
1.463,0.002647917330483196,-0.6394908867212825,0.3483764841643149,-0.3261509242455545,0.1442171008923694,4.563338252269496
1.471,0.008212899198898782,-0.596776246545689,0.35364865446153537,-0.29486417999563885,0.1412564807143344,4.512388289372742
1.479,0.013787556335189244,-0.5530346088811955,0.3589092155991569,-0.2642442453319833,0.13799459832665306,4.461086627722496
1.487,0.019330267221280728,-0.5082343962985867,0.36415717401711856,-0.23340626759723593,0.1345600128216322,4.409962221684738
1.495,0.024934768548448005,-0.46236929140284033,0.36939985116302587,-0.2033881892632965,0.1311664781127142,4.362286359633256
1.5030000000000001,0.030436886174146416,-0.41536786059677056,0.374623499984871,-0.17329785508180295,0.12746799577609025,4.317379283120749
1.5110000000000001,0.03509347905634019,-0.3669334561172857,0.3797025694406315,-0.14337121080685256,0.12335132757373657,4.276827275481756
1.5190000000000001,0.03920998912712381,-0.31717983841137265,0.38464253584723274,-0.11297469106535507,0.11999757486069473,4.2370284120324
1.5270000000000001,0.04333150822002185,-0.26624638353216845,0.38949261071095,-0.0819905025588068,0.11629543597124137,4.196355424496826
1.5350000000000001,0.04775755677569471,-0.21423652667958404,0.3942988165205312,-0.05343897533266384,0.11210600254578917,4.157013384193181
1.5430000000000001,0.05201055314981318,-0.1609898972689674,0.39907156677001776,-0.022867995229488347,0.10864187738555042,4.1158865440386965
1.5510000000000002,0.05647001702853238,-0.10658867010580408,0.4038457224067207,0.004819645094730429,0.10446182146713046,4.076476153514749
1.5590000000000002,0.06070308450061557,-0.050910513725693995,0.4086170322522378,0.03405020716389595,0.101063629434333,4.034514509048751
1.567,0.06497941731576962,0.0059671661493947425,0.4133998158219452,0.06342554614583973,0.09727968352050897,3.9931217954331935
1.575,0.0063096022968434085,0.06784736030324634,0.4164192419083914,0.12268154054938174,0.08825902063304536,3.948749010923354
1.583,-0.08980484898413543,0.11386199748009052,0.41676636918318,0.162956706876336,0.08760130463624094,3.9424645853931324
1.591,-0.13019237215100077,0.1330015575913368,0.4170532532153235,0.17117964399601648,0.08632288176812697,3.9368743692879855
1.599,-0.13696235230463305,0.13611578166554317,0.41730431345188723,0.1680397377355276,0.07951769781071683,3.923176568168703
1.607,-0.11611023868117876,0.12605131785912072,0.4175725500200107,0.15718055677771536,0.0746894817721735,3.897653500620672
1.615,-0.09193818070644699,0.11440459045618923,0.4181658727990243,0.14472690270252064,0.06959979548233175,3.8672270082084212
1.623,-0.06915038900740988,0.1034140886902506,0.4189239253244592,0.13269744530547056,0.06619451320227476,3.8498335768138405
1.631,-0.04423891451516937,0.0915857276564882,0.41961360875000864,0.12120035364677184,0.060965933460330746,3.7939228219914805
1.639,-0.022272299606444612,0.08088831423673604,0.420119348858643,0.11249732897250864,0.057837305811013096,3.7634477996322717
1.647,0.00016582910671925077,0.07017085786800514,0.42056823529413023,0.10345552718249484,0.0588656534865315,3.662384461100822
1.655,0.02407023404112074,0.058738135920892276,0.4208108565555122,0.09364109439829837,0.053465387475307935,3.589390592350118
1.663,0.04605458378496241,0.04825218093159833,0.4211468989529852,0.08570879617085714,0.04863615100798313,3.53998337972848
1.671,0.06581539509845324,0.03889248567207382,0.4215821280437613,0.08142595022529475,0.04432677946928365,3.4971350321546817
1.679,0.07794083166586407,0.03344069677095263,0.4228810983792437,0.09124849128963719,0.04030353032057654,3.4575564826590357
1.687,0.0834275469794763,0.03107683504101111,0.42405777950942536,0.09883849819146517,0.037270221042911444,3.4277880561708054
1.6949999999999998,0.0858488301020861,0.029969047997548515,0.4244400803867281,0.09969278277414029,0.03339449126024974,3.3875688027243216
1.7029999999999998,0.08808521754598164,0.028933577709274516,0.42475302284794747,0.10014887547123719,0.029001149103120127,3.3480000075004694
1.7109999999999999,0.0902517310716453,0.02792668931428821,0.4250902191004071,0.10040592377646673,0.024708227526218707,3.3115873954401467
1.7189999999999999,0.09250741614613212,0.02687175985643364,0.42543188847857305,0.1004055443994587,0.020345252719685902,3.2766614364410698
1.7269999999999999,0.09493685242564975,0.025728800663189944,0.4257761481703479,0.10012320556575416,0.01596962946228686,3.2422805070617846
1.7349999999999999,0.09746503802202877,0.024534704826532305,0.42612240144787705,0.09963799734500389,0.011577980338763894,3.2081286832613563
1.7429999999999999,0.10000554954538288,0.02333165590953712,0.42647042893503784,0.09902674977357817,0.007182438823324588,3.174101991932056
1.751,0.102515475160601,0.022140677845406742,0.42681990941767367,0.09833188936971338,0.002810815890006424,3.1401765708465232
1.759,0.10499015996397087,0.02096443675845272,0.4271708724372907,0.09756433203509962,-0.0018122652965342212,3.106343321004247
1.767,0.10744038737831474,0.019797610442982005,0.42752572104380526,0.09672012333339852,-0.006030352241525705,3.0726014950187386
1.775,0.10987720491928865,0.018635574819080958,0.4278776670597031,0.09582751572059722,-0.010504760810464475,3.0389153190767315
1.783,0.11230771886009983,0.017474811225833164,0.42823234138581334,0.09486333690962434,-0.014912086072213171,3.005305118335383
1.791,0.11473205067151149,0.0163155429273516,0.42858767178265467,0.09384470199849337,-0.019345126116830258,2.9717531893101006
1.799,0.11714990158830307,0.015158092408681156,0.42894389527872967,0.0927768381957148,-0.023776239507444785,2.938254319087492
1.807,0.11927195671706947,0.014141242344665628,0.42930097690393776,0.09182542989700826,-0.02833767771127249,2.9056708513211467
1.815,0.12079991729223671,0.013406912218174583,0.4296600995217732,0.0911237163525187,-0.03292518635165642,2.874213568191661
1.823,0.12215738000450305,0.012750278391166603,0.4300220121440175,0.09036568076356177,-0.03750162547652636,2.843066138178087
1.831,0.12357006720075425,0.012062827191636316,0.4303860153945962,0.0894132144737747,-0.04209852275360504,2.8122300781551592
1.839,0.12507293255652918,0.011328351869403619,0.43075199192701685,0.08826551090810453,-0.04670822724879997,2.781562182296553
1.847,0.12662004172725805,0.010569625709095476,0.4311197105665725,0.08697535969157189,-0.05132785772885562,2.7510154999342715
1.855,0.12816452714843418,0.009809721181088804,0.4314889752423099,0.0855904613054661,-0.05595352756050431,2.7205661242914507
1.863,0.12968534911547724,0.00905912221452887,0.4318596129582204,0.08413621853528985,-0.06058363167222325,2.690199189750799
1.871,0.13120654564675238,0.008305519809828965,0.4322647305050973,0.08258116180547637,-0.06521306280733263,2.659934517362509
1.879,0.13274046883080803,0.0075458496005449405,0.43264349495607046,0.08098226589929913,-0.06972652507846355,2.6297050884433277
1.887,0.13420963991124069,0.0068155886451446435,0.4330002156342374,0.0793398279685209,-0.0741700669519254,2.5995541891626184
1.895,0.13562320560478103,0.0061102659702712,0.4333740192381077,0.07767019987732171,-0.078773173917849,2.569459053099753
1.903,0.1369961907751538,0.005423225159139733,0.43374774532119176,0.07597436842516414,-0.08343565664121755,2.5394117719900473
1.911,0.13783892317916102,0.00498925039920195,0.43412293725006723,0.07452759817056664,-0.08816660450358249,2.509934511167571
1.919,0.13835242014092586,0.0047102996308510114,0.4344997750298569,0.07314566705640013,-0.09285200731074816,2.481501115968702
1.927,0.13884187522113578,0.004439341831536936,0.43487884494790485,0.07161900290315737,-0.097563663023573,2.453477775012277
1.935,0.13940875476467607,0.0041280184358711836,0.4352594435737318,0.0698962603196791,-0.10229430044536691,2.4256238191819284
1.943,0.14003227751875968,0.003786707736663786,0.435643752579324,0.06801286378537741,-0.10705354124341682,2.3978934389786586
1.951,0.1406475690762896,0.003442278606531346,0.4360356270923704,0.06600888609027367,-0.11184269113078926,2.370240879146441
1.959,0.14121242088322639,0.003133827236755593,0.43642822372615253,0.06394476151432782,-0.11655573983853706,2.3417854647173124
1.967,0.14184975016130164,0.002779878847904982,0.43679426088049933,0.0617812121149961,-0.12083322878378588,2.3139662458220664
1.975,0.14245687308820099,0.002440417277030704,0.4371785872416085,0.05964324429561918,-0.12566726669905837,2.28621535670304
1.983,0.14304291286704096,0.00210779639446379,0.4375763383988023,0.05742210310164397,-0.13041558213252902,2.258482292578674
1.991,0.1436212882068908,0.001777651840665584,0.4379673017891452,0.05514440266560827,-0.13519141491772135,2.230799157509815
1.999,0.14418805652965627,0.0014528398512396734,0.4383571719114485,0.052822251284772026,-0.1399675961101705,2.2023384006398166
2.007,0.14449613852946985,0.0012519501310261916,0.43874765749329026,0.050602463256806285,-0.1447712959251044,2.1749714715985577
2.015,0.14429180766755145,0.0012960706106266429,0.4391406245253302,0.04860074436538442,-0.1495253485883552,2.1487042917685146
2.023,0.1439379209824425,0.0014101704852045316,0.43953536210481214,0.04654915613291122,-0.1542903807874394,2.122942681411229
2.031,0.14362810315807373,0.0015014630230361092,0.4399313564615719,0.044324399751149546,-0.15907787153932595,2.0973883307896726
2.039,0.14339235355826396,0.0015561557679770743,0.4403284666520566,0.04192851321723756,-0.1638850721158409,2.0719194892126174
2.047,0.14319171503307881,0.001593570767476571,0.44072659506702916,0.039409680013026804,-0.16870587305819118,2.046487968444498
2.055,0.1429867537758991,0.0016330993760895751,0.4411256689672918,0.03680989458719486,-0.17353438152944367,2.0210736125264175
2.063,0.14276013033444457,0.0016833829048419346,0.4415255998689016,0.034151036049290706,-0.17836854188167184,1.995667702863778
2.071,0.14251190662023916,0.0017446304438664129,0.44192628792401756,0.0314405016964554,-0.18320779171159085,1.9702661960494305
2.079,0.14224847052586043,0.0018139817441396033,0.44232763067142944,0.02868050649049403,-0.1880520733493123,1.9448671373301822
2.087,0.1419754008718188,0.001888949226731107,0.442729534077408,0.025873537574944816,-0.19290117830417408,1.9194696012630663
2.095,0.14169550805985764,0.001968358537208559,0.4431319155182969,0.023023635748498972,-0.19775468654195105,1.8940731674123006
2.103,0.14137402463662596,0.0020689595750189582,0.443534729661331,0.020154723597352042,-0.20261504616260329,1.8691924041011658
2.111,0.140582373801732,0.002396289331577428,0.44393991374101827,0.01751849118053128,-0.20742323859488643,1.8462500904877954
2.1189999999999998,0.13949761483485723,0.0028646938058090043,0.4443477552300301,0.014951302406826183,-0.2122055170867272,1.8232886464022444
2.127,0.13838707782867488,0.003345839032514064,0.4447571499833618,0.012267375023546467,-0.21700921873012824,1.800312138512811
2.135,0.13734225487718277,0.0037962323844968893,0.4451677683141826,0.009420085583769389,-0.221830497562145,1.7773276631330637
2.143,0.1363486600970445,0.004223299604769082,0.4455794246909832,0.006440043877558477,-0.22666570411027287,1.7543404425469218
2.151,0.13536623667643433,0.004646640654081047,0.4459920319385269,0.003370784705598151,-0.2315091892201968,1.7313535177761787
2.159,0.1343692132184282,0.005078888082406863,0.446405506780132,0.00024642161923127404,-0.23635813293291985,1.708368034880249
2.167,0.13335108923534555,0.005523374553456861,0.44681974969369076,-0.002940590423009315,-0.24121142508541205,1.6853841211421754
2.175,0.13231602650079388,0.005978268491794836,0.44723466072107687,-0.006165760769280215,-0.24606902547207277,1.6624014998273298
2.183,0.13126979615019696,0.006440956983379209,0.4476501404018638,-0.009435077000846892,-0.2509310096678341,1.639419869765546
2.191,0.13023343815678157,0.006902810506997703,0.4480887765870305,-0.012680363561732744,-0.25674038821227807,1.6166191447251288
2.199,0.12912448677048793,0.007405056777226804,0.44850093460894236,-0.0157740340506618,-0.26214076307387835,1.5936986565490807
2.207,0.127789037561441,0.008010436950037558,0.4489084432669861,-0.018877297019232575,-0.26774168606964555,1.5722063114689968
2.215,0.1260025737025421,0.008795354328727356,0.44932243897667146,-0.02160425170480762,-0.27240169718333096,1.5513691010459718
2.223,0.12416151753105975,0.009616035397025158,0.44975000750460836,-0.024508916032317085,-0.27747138324133847,1.5306149890008482
2.231,0.12239270251000622,0.010405150970149712,0.45018921629366915,-0.02760983109360593,-0.28228613925891644,1.5099069477013254
2.239,0.12069268162004843,0.011163436087286094,0.4506325331975667,-0.030869743012227335,-0.2870526257820831,1.4891943583703275
2.247,0.11901734204835801,0.01191221365305939,0.45107546241847185,-0.03424663455551835,-0.2918127338990564,1.4684664799192388
2.255,0.1173315405868065,0.012668800856666884,0.45151865282316717,-0.03769851604141072,-0.296586416409399,1.4477369030501857
2.263,0.11562227497447974,0.013439711451677994,0.4519623578142449,-0.04120947264375774,-0.30136301871365667,1.4270070004618356
2.271,0.11389173406401465,0.014224123963303192,0.45240644448637735,-0.04477327786824192,-0.30614530779203886,1.406277845373812
2.279,0.11214660965043688,0.015019030047427329,0.4528508197107026,-0.04838778347913886,-0.31093223381350477,1.3855494861678457
2.287,0.11039202113804425,0.01582215492388528,0.45329538896983923,-0.052049900676216954,-0.31572379329631595,1.3648219081124955
2.295,0.10863035485367956,0.016632512832958746,0.45374006993154836,-0.055755193416227034,-0.32051948214707604,1.3440950635273738
2.303,0.1068520965698001,0.01745486167309096,0.45418467610948277,-0.05949210975361163,-0.3253132976646258,1.3235672475766789
2.311,0.10471603522354567,0.018452561460847505,0.4546307460775365,-0.06307866743426294,-0.3299470360687753,1.304972411215716
2.319,0.10229789765667352,0.01958955997515055,0.4550783294711671,-0.06659002090375266,-0.3345694994784765,1.2863745752860742
2.327,0.09983325076624094,0.02075298707759199,0.4555264605708995,-0.0701798430727627,-0.3392042899375429,1.2677634403479265
2.335,0.09741492832861542,0.02189863575212847,0.45597504949900003,-0.07389558873339697,-0.3438510774870984,1.2491454478024862
2.343,0.09504087203797784,0.02302775811934854,0.45642392695518286,-0.07771897520024185,-0.3485090448402923,1.230525195637827
2.351,0.09268059820167007,0.024155169155709366,0.4568729894337844,-0.08161754612215377,-0.35317396833917947,1.2119049108787339
2.359,0.09031155095076482,0.02529183528961365,0.4573221399278795,-0.08556819588993791,-0.35784361770240825,1.1932854400757629
2.367,0.08792638101092276,0.02644140631982239,0.4577712890356773,-0.0895601626043745,-0.36251695893763713,1.174666873403953
2.375,0.0855270375193884,0.027603057306020418,0.45822035145152196,-0.09358961725149362,-0.3671937262501892,1.1560490567407582
2.383,0.08311784449894422,0.028774809204146656,0.45866924806268017,-0.09765454753315295,-0.37187378237862223,1.1374318298427815
2.391,0.08070197395379441,0.02995521932717793,0.45911790711777467,-0.10175243620678787,-0.37655690599716607,1.118815087419045
2.399,0.07828089553345041,0.031143646002729675,0.45956626433348724,-0.1058800414301122,-0.3812427850037894,1.1001987636005337
2.407,0.07568962026278658,0.032419079449798716,0.46001493001559,-0.10995146832278158,-0.3857980987721472,1.083013960475573
2.415,0.07275260972305642,0.0338662680110593,0.46046530543238173,-0.11389726836104819,-0.3902403603214184,1.0663989430984193
2.423,0.06970754655000189,0.03537143872768134,0.46091577809554973,-0.11786346140369419,-0.39471177493793785,1.0497674729600073
2.431,0.06668425084556251,0.036872573351168114,0.4613663374147414,-0.12192448170235659,-0.3991866691608461,1.0331276740997142
2.439,0.06370654018170807,0.03835834252538195,0.461816777665188,-0.12608005148587376,-0.4036726917719049,1.0164847060564286
2.447,0.060665798834333096,0.03983385023094055,0.4624177240640073,-0.1294472053063136,-0.4094362068792714,1.0201881963305492
2.455,0.05616673992617205,0.04126535343371884,0.46425770945330314,-0.15019433918221248,-0.42462149148089434,1.0778254238711646
2.463,0.05148545864002774,0.04245239946894497,0.46672923195918425,-0.17221560786688928,-0.43505168172976827,1.1534097558971057
2.471,0.04758418526921471,0.04373833102618008,0.4684576573720012,-0.1861653059968007,-0.43830375122039644,1.2108187844500726
2.479,0.043723365523109514,0.045401046815442214,0.4689933616297255,-0.18926480397283862,-0.4424906970840139,1.2238486821692618
2.487,0.04045736539190958,0.04702394814804389,0.4685713004997476,-0.18512018660589957,-0.4461035387578951,1.2075400668788632
2.495,0.03804978030990025,0.04829585148165627,0.46797600252724525,-0.1801675381221739,-0.45069875300342854,1.1837474348561194
2.503,0.03605000102146416,0.0492526935546298,0.4677990701213188,-0.17906884784057686,-0.4565188980145587,1.1716734434498743
2.511,0.03360730258946898,0.050233163569646244,0.46819406853270085,-0.18262461038987032,-0.46231201519145504,1.1791727737901958
2.519,0.03056490560613856,0.0513837991475512,0.46897408081534575,-0.1889844092840529,-0.467902144437887,1.1997713768427944
2.527,0.02710518557873076,0.052731661231153026,0.4698248868195165,-0.1955481726527153,-0.4731038485647252,1.2230278002572819
2.535,0.02346756581106657,0.05422832051429616,0.470506781519509,-0.20048712951402647,-0.4779256424878211,1.240994668720762
2.543,0.01988480858687769,0.055766019561672486,0.4709524644170102,-0.2034662823734812,-0.4825227419348126,1.2514094721378717
2.551,0.016499563825635555,0.05724602344298635,0.4712450475677761,-0.20530543848565364,-0.48715312014308854,1.2566806285004004
2.559,0.013310884269658096,0.05863339206432894,0.47152184868138924,-0.20712047923706534,-0.4919884323610999,1.2609663617924909
2.567,0.010214400334882079,0.05995593511621333,0.4718825840238585,-0.20963407051440042,-0.49702594279803325,1.2674548981974336
2.575,0.007093582967608647,0.061266979354189566,0.4723513519082916,-0.21295212419879972,-0.5021578077144175,1.2770799549541207
2.583,0.003884765268504786,0.0626086274292188,0.47289143331149486,-0.21673353612726087,-0.507269759483786,1.2888421577229003
2.591,0.0005894570839108937,0.06399421782410464,0.4734450802671537,-0.22052043023125867,-0.5122940243937952,1.3010107280142602
2.599,-0.0027495316602843545,0.06541110191489086,0.4739697351467491,-0.22400926465751558,-0.5172225320344817,1.312260207058375
2.607,-0.006205076518393859,0.0668955338354209,0.47445697981252355,-0.22717107662843672,-0.5218985973814787,1.3228509511648223
2.615,-0.009892330618497702,0.06849872455239314,0.47493084686516607,-0.23014867740528144,-0.5263718299876983,1.3334847463228998
2.623,-0.01363994644705091,0.07013037125453359,0.47541854948759976,-0.23317772179907292,-0.5309370996608367,1.344248786431919
2.6310000000000002,-0.01736264297960144,0.07174843522269292,0.47593484686622833,-0.23640801911037057,-0.5355613607289316,1.3556518029623117
2.6390000000000002,-0.02105879616657358,0.07335395095384367,0.4764775096982712,-0.2398126680139483,-0.5402114253480219,1.3676581694981778
2.6470000000000002,-0.02475206331885449,0.07496134004357646,0.4770331542351567,-0.24327615893559473,-0.5448457467078311,1.3799256665714328
2.6550000000000002,-0.02845872071540345,0.07658059772814152,0.477587680038984,-0.24668758118197998,-0.549437573924572,1.3920781879694388
2.6630000000000003,-0.032177640561932286,0.07821125751402658,0.47813385221715343,-0.24999944869448987,-0.5539957479866926,1.4038926619204224
2.6710000000000003,-0.03589863723881148,0.07984762149595959,0.47867287262780067,-0.25322834063695465,-0.5585367099899736,1.4153819791516469
2.6790000000000003,-0.039614952543828075,0.08148544275291503,0.47921094603052516,-0.25642409526973386,-0.5630782381829382,1.426704693496478
2.6870000000000003,-0.043326888847791345,0.08312431068073955,0.4797544751905116,-0.2596338637712967,-0.5676298358477583,1.4380398391608615
2.695,-0.04705744240070775,0.08476934269846215,0.4802810198581664,-0.26321990383448,-0.5726552195533587,1.4487442863845406
2.703,-0.051541302665314426,0.08651480694949942,0.48108142553326605,-0.2687644279793502,-0.5741565935161148,1.3968092660874092
2.711,-0.055298735426130285,0.08809445266976468,0.4820351500054896,-0.2731802548841311,-0.581468637864301,1.4099463944948365
2.719,-0.05921447795083612,0.08984732042471144,0.48270650007742244,-0.2772893074937026,-0.5847575783314767,1.4276546125188245
2.727,-0.0633607398747893,0.09171724212998011,0.48315996612325574,-0.2797483780642547,-0.5883815737397438,1.4380969076921613
2.735,-0.06747030030150203,0.09357530455122554,0.4835214143712854,-0.28150750523224266,-0.5920255574457673,1.4454512879937216
2.743,-0.0714736552523414,0.09537628153138833,0.48392000363024135,-0.28357269531981144,-0.595951862934383,1.4533050944734232
2.751,-0.07541980816422633,0.0971433403664923,0.48443145929048814,-0.28644303387789405,-0.6001850681062475,1.4638486753646474
2.759,-0.07939571119109612,0.0989252127219915,0.4850558647116996,-0.29008274042813964,-0.6045765383847534,1.4773751581459793
2.767,-0.08354672678086583,0.10080979587586825,0.48586002086170144,-0.29792828100048707,-0.5972980277749205,1.346366828601199
2.775,-0.08921831030120142,0.10336000544166168,0.48798974017650654,-0.3143753745432938,-0.5978528811867845,1.2499444690694395
2.783,-0.0943553223493625,0.10538691426568292,0.49032862012519995,-0.32555347524929124,-0.6128785493227111,1.268394039769018
2.791,-0.09852539797931481,0.10729285043144099,0.4920914000761538,-0.3336381194801237,-0.6159660894799197,1.284052929656493
2.799,-0.1028456073097681,0.10925920259236666,0.4930332825124788,-0.33659926144647256,-0.6195368966578778,1.2885474254820437
2.807,-0.107034852261509,0.11120037003662375,0.4932560029389359,-0.3365482478971997,-0.6216240087174087,1.2891642205524887
2.815,-0.11115008061331633,0.11310842940468468,0.4932234031973124,-0.3349774423549614,-0.6233256892856529,1.286073716311722
2.823,-0.11513820665505481,0.11492580083177995,0.49332093998643245,-0.3349670489620107,-0.6264106120838688,1.2859639642886513
2.831,-0.11909052769284845,0.11672672613321122,0.4937534419894032,-0.3373050143999383,-0.6304268052714841,1.2940456645914917
2.839,-0.1233925029972065,0.1188419563032852,0.4949376268456884,-0.3495748268687966,-0.6178158282519233,1.1303301837567457
2.847,-0.12944062121210376,0.12198319563002169,0.4979366512869783,-0.37235727681881814,-0.6080841286723659,0.9258082319228063
2.855,-0.13573224097045067,0.12490389569049398,0.5022244155012938,-0.3950079280368528,-0.6192384640433586,0.7500509795445893
2.863,-0.1420524955226652,0.1283360818712307,0.5076811936714032,-0.42988548069724297,-0.6100338665761278,0.7411036820644199
2.871,-0.15142593227747714,0.13187452056768922,0.5134640969868149,-0.44762341738984235,-0.6186960982269749,0.6922718478333438
2.879,-0.15763744004121438,0.13345031559456633,0.5187824037823141,-0.4498089633315554,-0.6318814526967387,0.6110675482710022
2.887,-0.1598349857127106,0.13374724653477443,0.5231688019873513,-0.4493870267955846,-0.6352681975001078,0.5411477759699199
2.895,-0.1616215042868836,0.13425991492301037,0.5268229666660078,-0.4505102870574267,-0.6357780557217421,0.4852320046805625
2.903,-0.1645701357649001,0.13554023572379137,0.5302189383979394,-0.4505969040869213,-0.6347632483042585,0.4404973119150011
2.911,-0.1687777471937606,0.13763591785345142,0.5340158932126453,-0.44979183686063395,-0.6351093642478558,0.3966218898803424
2.919,-0.17370055806024087,0.14002210453952824,0.5377569959312112,-0.4570343303055453,-0.6408465976813931,0.3836537592139537
2.927,-0.1785081444404577,0.14243117618879797,0.5410472011407723,-0.46357181924886826,-0.6429147756540878,0.3696262075477632
2.935,-0.18332617686566177,0.1448059840111231,0.5437403468644604,-0.4656506141774259,-0.6447883082627097,0.3481860748097425
2.943,-0.18786721172138154,0.14703131377906864,0.5458812814104848,-0.4658432093169105,-0.6464275704535307,0.3256490650827306
2.951,-0.1921810091186087,0.1491634592678439,0.5476097462223288,-0.46606348570058165,-0.6479945915210745,0.3055541097569243
2.959,-0.19646877984775468,0.1513046934090312,0.5490429170005706,-0.4667841575051308,-0.6498027139651672,0.28813505614707324
2.967,-0.20084904404175408,0.15351429353391044,0.5502391762333634,-0.46797900944821036,-0.6517955517142724,0.272813675195243
2.975,-0.20534500236749142,0.1558010017968492,0.551217960675257,-0.4694892193410918,-0.6539217847604828,0.2588032730690646
2.983,-0.20992304714582044,0.15814540250067743,0.5519827283662115,-0.47116229324303793,-0.6561514575382477,0.2454617919752815
2.991,-0.21454008939538216,0.1605246375723528,0.5525344059772328,-0.47290592957602096,-0.6584657600425903,0.2323983954755402
2.999,-0.21916894541655818,0.16292483012895342,0.5528768339257644,-0.47468461723432887,-0.6608552946427757,0.21942315696986814
3.007,-0.2238367095717786,0.16536019301547,0.5529525717975137,-0.4762824377669195,-0.6628649313311232,0.20660627250717045
3.015,-0.22871950538179409,0.1678315676388058,0.5527114001475439,-0.47654816868076244,-0.6642815411529277,0.19507142084440598
3.023,-0.23314535985321694,0.16985973016127165,0.5523876812612141,-0.4743172126570667,-0.667725427312563,0.18416619654507382
3.031,-0.23695999913862575,0.17170390427874604,0.5521186302502858,-0.47278555306842796,-0.6692220522769627,0.17732384738810314
3.039,-0.2410699455738614,0.17370317261988344,0.5519610214465942,-0.47200865279667203,-0.6710944864870196,0.17290358620539248
3.047,-0.2455653417421244,0.17589715941555273,0.5519067373812376,-0.4719015402138207,-0.6729939522110406,0.17117151332406078
3.055,-0.250310773223025,0.17821739202105036,0.5519133155070515,-0.47219934943019437,-0.6748736132930979,0.17105874240083896
3.063,-0.2551449956203067,0.18058446508633796,0.5519374920724163,-0.4726264865824077,-0.6767382317760919,0.17136683964456267
3.071,-0.25997238716643967,0.18295196049990636,0.5519489858302302,-0.4729967074564363,-0.6785888853930988,0.17128580699421114
3.079,-0.26476592735449334,0.185307118883542,0.5519337073017541,-0.4732238890790561,-0.6804395235189737,0.17042651667693676
3.087,-0.26953674325662025,0.18765587303743647,0.5518898493415287,-0.4732990983379213,-0.6823048484401948,0.16872746626928858
3.095,-0.27430395598621526,0.19000767660757667,0.5518418522584474,-0.4733384792412516,-0.6842663579230823,0.1665863213615033
3.103,-0.2790731158163693,0.19235860262707316,0.5519246940081164,-0.47414798761578014,-0.6865111925044616,0.1670703434079197
3.111,-0.28379864844070557,0.19469123728029825,0.5522359067274643,-0.47651332358923826,-0.6883345216726084,0.17417481888961195
3.1189999999999998,-0.2863649081734474,0.19593422254231907,0.5527965409647413,-0.4806203700180629,-0.6906689706034363,0.18697536261291425
3.127,-0.28629289573131356,0.19582017505032656,0.5534556928720669,-0.48773284762831404,-0.6929842702188402,0.20897946211916185
3.135,-0.2851320535796269,0.1951900281389145,0.5535471960947183,-0.49546656346179363,-0.690694841008237,0.23498549022645943
3.143,-0.28042532422878974,0.19390445242753973,0.5522740180905297,-0.5116468710852158,-0.7027764291482335,0.18053785237450892
3.151,-0.27521452448904693,0.1925148886672341,0.5491357752846655,-0.528374901299085,-0.7024740160126335,0.14218913272007416
3.159,-0.2709605607995922,0.190937329574159,0.5442709631808134,-0.5470389898954111,-0.7061478225881563,0.09145700921026201
3.167,-0.2674312235698606,0.1891692543259511,0.5373725990351739,-0.5606659012744992,-0.7127380925926694,0.05324321693781453
3.175,-0.26569790267540316,0.18693526051718212,0.5291905613701866,-0.5579196573805754,-0.7140835192629407,0.03605282394068876
3.183,-0.265340893949519,0.18408381700993726,0.520533030144759,-0.5544452801016138,-0.7166503444793477,0.027215166902492705
3.191,-0.2665454292798941,0.18069428761212958,0.511898313951094,-0.5600229519104203,-0.7183603865028179,0.02029986839954301
3.199,-0.2698569834786202,0.17667967254204786,0.5035448958499691,-0.567734067306922,-0.71997275199627,0.013255987194617624
3.207,-0.2750220696285659,0.17184218263877415,0.49555751460557484,-0.5713765962293134,-0.7214161290492367,0.007666983051517029
3.215,-0.2814610345889026,0.16624968454579214,0.48793190708090517,-0.5735551043809113,-0.7227793824373556,0.003263751066350018
3.223,-0.28871740770409815,0.16014081730369245,0.48073262453334653,-0.5780419768688367,-0.7240204659063565,-0.0011140761240175934
3.231,-0.296478210078968,0.15368712892038605,0.47396227405721714,-0.5836441153610124,-0.7251826482576487,-0.005844470238709043
3.239,-0.30439814737563253,0.14701512678243756,0.4675950669443134,-0.588075038856958,-0.7264189548268405,-0.010595047956907244
3.247,-0.31205556314584904,0.14026592530850213,0.46159927622106967,-0.5916045374761079,-0.7277107909472758,-0.015139806444927295
3.255,-0.3191423564940443,0.13358912085851404,0.45593634773000513,-0.5953677783906861,-0.7289877705663592,-0.019628201962457403
3.263,-0.3255345780282006,0.12709325482562672,0.4505600625053612,-0.5992892340167564,-0.7302562474292866,-0.02418761362013644
3.271,-0.33120677348635574,0.12083374195207153,0.4454239670224611,-0.602771501636663,-0.7315541953619018,-0.028749942831770348
3.279,-0.33617749513779316,0.11483305098571517,0.4404868304533922,-0.6058350195457947,-0.7328798226658559,-0.0332438724982298
3.287,-0.3405289437025889,0.10909023954128205,0.4357119074837579,-0.6088503629462116,-0.7342095856769486,-0.037702413417570746
3.295,-0.34440987172271953,0.10357769469681788,0.43106557759530606,-0.6119104966192466,-0.7355376771210498,-0.04217128140854687
3.303,-0.34797171116885117,0.09823443425400757,0.4265107737589622,-0.6148927396364523,-0.7367905024933172,-0.046417136703763795
3.311,-0.3512828409492048,0.0929413615209489,0.42191681029235983,-0.6174739507393521,-0.7374871563267806,-0.049751880643692736
3.319,-0.35460994254635025,0.08769745621420011,0.4172663874480014,-0.6199198946923761,-0.7383198123009276,-0.05302747053455281
3.327,-0.3580705980107233,0.08246042991164781,0.412578860335139,-0.6226808409284188,-0.7391039204177652,-0.056317521028806716
3.335,-0.36176094646544144,0.07718581346235442,0.4078671302675465,-0.6256626208410068,-0.7398790824182786,-0.059659226195912574
3.343,-0.3657329640463072,0.0718366318280923,0.40314027457757984,-0.6286292100627757,-0.7406530535446691,-0.06301540244617865
3.351,-0.3699859991733785,0.0663924822472266,0.39840559568922185,-0.631609574697293,-0.741425477777998,-0.06636129172545413
3.359,-0.374491261366936,0.06084925815978881,0.3936683603785527,-0.6347105862122144,-0.742189588751506,-0.06971203769476109
3.367,-0.37920718720071633,0.05521310745277486,0.3889317749647132,-0.6378996887287758,-0.7429477849655655,-0.07307891557624213
3.375,-0.38407899210072216,0.04949723350602486,0.3841978672987443,-0.6410903919841053,-0.7437056113258294,-0.07645209707575429
3.383,-0.38904244481330785,0.04372087819972936,0.37946811914110423,-0.6442637230011274,-0.7444643439941245,-0.0798222340411785
3.391,-0.39403550910570573,0.03790660990283801,0.3747434528878406,-0.6474352486584887,-0.7452231323114891,-0.08319096505468426
3.399,-0.39900671060926207,0.03207653552794287,0.3700241857606441,-0.6505930482937496,-0.7459828356732281,-0.0865607145516245
3.407,-0.40385660767401355,0.026219269910963128,0.365264300327234,-0.6535814235379696,-0.7463226647703038,-0.08920047774167461
3.415,-0.4085629347436779,0.020353538183315756,0.3603955611630161,-0.6561398984629956,-0.7465161992679903,-0.09149272068964454
3.423,-0.4131393673512189,0.014517280811822353,0.3554508989401226,-0.6586379735628465,-0.7467486513301527,-0.0937495455958901
3.431,-0.41758750386633636,0.008723848269425183,0.35045625858958385,-0.6612960967304633,-0.7469636953470111,-0.09602624274762928
3.439,-0.4219355728003187,0.0029735748520467453,0.34542972076376355,-0.6639442796649031,-0.74717979617267,-0.09832801382517875
3.447,-0.42620827174805065,-0.0027397320762334587,0.3403844934966953,-0.6664733028158376,-0.747402450232368,-0.10062127676292487
3.455,-0.4304244934977888,-0.008422642320334184,0.3353302553656059,-0.6689787027117506,-0.747625953365489,-0.10290106538645905
3.463,-0.4346092403532893,-0.014082783377447505,0.3302733287502404,-0.6715340792025901,-0.7478458933119079,-0.10518428089980869
3.471,-0.4387910516500835,-0.019729890284584606,0.32521743580581575,-0.6741066062433183,-0.7480644625336179,-0.10747483723622597
3.479,-0.44299195155579163,-0.02537379213622959,0.3201647996042096,-0.6766673520218691,-0.7482834877994815,-0.1097650473209617
3.487,-0.44722551272501576,-0.03102229306848603,0.3151167197642346,-0.6792382621064106,-0.748501631173303,-0.11205319118871149
3.495,-0.451500254521946,-0.03668101911708188,0.31007373642044467,-0.6818381426523117,-0.7487177921871773,-0.11434344328312118
3.503,-0.45581397373454813,-0.04235809440509808,0.3050294946637644,-0.6844445607797431,-0.7488492928126806,-0.11643710706868315
3.511,-0.46011561021934533,-0.04806569424024243,0.2999049565800016,-0.6867618239178941,-0.7483964461420785,-0.11776681744333661
3.519,-0.46439380165619504,-0.05379171532279248,0.2947036707148749,-0.6888041628803925,-0.7480867558383766,-0.1190557014750242
3.527,-0.4686330568212522,-0.0595200997478722,0.2894520659635491,-0.6909357557749316,-0.74774292347462,-0.12033143663502432
3.535,-0.47283824400537,-0.0652424499551385,0.2841689638748468,-0.6931952977030078,-0.747396058687742,-0.12163682649518481
3.543,-0.4770218103958328,-0.07095772033667114,0.2788672812584112,-0.6953966751983773,-0.7470509136185903,-0.1229547581896524
3.551,-0.48118456794910713,-0.07666588246878003,0.27355647240794223,-0.697518929323516,-0.7467102817658269,-0.12426021196633119
3.559,-0.4853251658633084,-0.0823659847336744,0.2682430636445945,-0.6996575898307547,-0.746368053244141,-0.12555983576258445
3.567,-0.4894500750466104,-0.08805848677727912,0.2629309179653445,-0.7018291852543448,-0.746023482403567,-0.12686583904899695
3.575,-0.4935683555892112,-0.0937456542379076,0.257622126066555,-0.7039900610222403,-0.7456793754350519,-0.12817507516747195
3.583,-0.4976855331953107,-0.09942987416079507,0.2523178181583221,-0.7061342796103829,-0.7453361283735447,-0.12948142713269473
3.591,-0.5018051670772312,-0.10511296313678908,0.24701844681315333,-0.7082860746686328,-0.7449922783745437,-0.13078643912345544
3.599,-0.5059312607212334,-0.11079659965259214,0.24172392190254133,-0.710450728600406,-0.7446475570199702,-0.13209328525163055
3.607,-0.5100662613533693,-0.11647621876090053,0.23640025941510867,-0.7125279807920033,-0.743875654814528,-0.13277303107915284
3.615,-0.5141468217843386,-0.12215120187680828,0.23100369266618248,-0.7142309604096257,-0.7429422274218487,-0.1331834732905035
3.623,-0.5181388156993716,-0.12782003635579908,0.2255581778195177,-0.7157762045535381,-0.7420553031529371,-0.13355345483392522
3.6310000000000002,-0.5220426078928835,-0.13346999854208175,0.2200823320550951,-0.7174577613634443,-0.7411520714456756,-0.13392785919854777
3.6390000000000002,-0.5258841919611239,-0.13909846209235877,0.2145882926095739,-0.7191896347135951,-0.7402462720421283,-0.13432937090479147
3.6470000000000002,-0.529687729017045,-0.1447091291832523,0.20908426674464398,-0.7208338297485724,-0.7393452424446227,-0.1347307054578204
3.6550000000000002,-0.5334655295482627,-0.15030591447571684,0.20357610870652199,-0.7224414965672721,-0.7384460208016241,-0.13511953649231234
3.6630000000000003,-0.5372303786694754,-0.1558927634550651,0.1980674914568743,-0.7240899086748658,-0.7375439045734726,-0.13550895910662764
3.6710000000000003,-0.5409990199211041,-0.16147497698578217,0.1925603494372341,-0.7257617163271486,-0.736640139580766,-0.13590532581480463
3.6790000000000003,-0.5447844625089076,-0.1670580257530938,0.18705572190912978,-0.7274241788132367,-0.7357368098296035,-0.13630246273103008
3.6870000000000003,-0.5485930246672321,-0.17264596246295572,0.18155421585286557,-0.7290889689625657,-0.7348331888581532,-0.13669742800292983
3.695,-0.5524275650942077,-0.17824138049955973,0.17605606832554965,-0.7307734294541581,-0.7339282296499441,-0.13709336667773098
3.703,-0.5562962254115167,-0.18384310242433433,0.17055628855568816,-0.7324672901587586,-0.7329409950698347,-0.13731632224711543
3.711,-0.5601967795552358,-0.1894103605334463,0.16500795631173748,-0.7339491130909965,-0.7313685478927203,-0.1369110724581617
3.719,-0.5640004956615847,-0.19497694898671636,0.1594163895637868,-0.7350563604690801,-0.7299376746019739,-0.13647887960969474
3.727,-0.5676827818007606,-0.20052837164527038,0.15379859501526294,-0.7361373403194391,-0.728481700909775,-0.13601221023690968
3.735,-0.5712562103301178,-0.20605269394884207,0.14816586633011308,-0.7373536850922355,-0.7270220172686699,-0.13556592535427558
3.743,-0.5747538302876531,-0.2115494815127379,0.14252467643255873,-0.7385425239191199,-0.7255626017404282,-0.13513822131826192
3.751,-0.5782001560214614,-0.21702292081450825,0.13687932741296382,-0.7396399412210974,-0.7241088818985073,-0.13470042424443207
3.759,-0.5816118615843084,-0.22247767730153623,0.13123267229413305,-0.7407385292168711,-0.7226547444780422,-0.13425336117533604
3.767,-0.5850096042888122,-0.22791984697004697,0.12558614153591474,-0.7418804762717541,-0.7211977357321961,-0.13381138864205866
3.775,-0.5884151016252073,-0.23335689257363246,0.11994033104992052,-0.7430298295234734,-0.7197401951866702,-0.13337451369693376
3.783,-0.59184315241653,-0.23879558286681668,0.11429564320290009,-0.7441732213222401,-0.7182829487638074,-0.1329362359561097
3.791,-0.5953016260339545,-0.24424087841776743,0.10865241511856372,-0.7453322408529455,-0.7168246138442651,-0.1324970000812007
3.799,-0.5987947283225754,-0.24969617823377543,0.10301085286386158,-0.74651437152384,-0.7153647372046397,-0.1320601718795098
3.807,-0.6023658503249667,-0.2551300907880103,0.0973577322613659,-0.7476679874695527,-0.7135076250236816,-0.1311527739853151
3.815,-0.6059275421449399,-0.26052049840709923,0.09167217215319834,-0.7484869779244749,-0.7114460275425598,-0.12996226693099988
3.823,-0.6093486832793271,-0.26590348261413954,0.08596628236901527,-0.7490132463514683,-0.709461846236441,-0.1287452908306408
3.831,-0.6126197612569992,-0.2712610879641657,0.0802497008096994,-0.7496159987124886,-0.7074612751587326,-0.1275199485286569
3.839,-0.6157711407788842,-0.2765850426630676,0.07452729928021018,-0.7503033241270525,-0.7054569631968812,-0.12632495987825898
3.847,-0.6188423239388197,-0.28187774752665096,0.06880134763497114,-0.7509112076863,-0.7034573800434449,-0.1251375492487048
3.855,-0.6218602788480823,-0.28714467285262035,0.06307336883419712,-0.7514559443761128,-0.7014617735255779,-0.12393649031872123
3.863,-0.624848216060446,-0.2923924362370718,0.05734420231007764,-0.7520322060613789,-0.6994640385115627,-0.12273233519209636
3.871,-0.6278329606762867,-0.297629537247059,0.05161405570994493,-0.7526437616539119,-0.697464039211372,-0.12153543791819299
3.879,-0.6308377236383595,-0.30286488694758074,0.04588307761847066,-0.7532550756624317,-0.6954640563389161,-0.12034103602132529
3.887,-0.6338764610591774,-0.3081057138695149,0.04015165777784535,-0.7538716983601321,-0.6934636682879214,-0.11914475641994393
3.895,-0.6369562576581629,-0.31335710188942034,0.03442028962159771,-0.7545136929240122,-0.691461555497769,-0.11794936743131323
3.903,-0.6400982019106003,-0.31861104034051646,0.02868817223968012,-0.7551857967873867,-0.6893855250444325,-0.1166047105091712
3.911,-0.6433453674320795,-0.3237803213398971,0.0229469845915089,-0.7557472746308309,-0.6867397836014302,-0.11477166406003025
3.919,-0.646469780857986,-0.3289392939838729,0.017201147469918077,-0.7558378954716107,-0.6842317923909826,-0.11292720228992881
3.927,-0.6494218864408783,-0.33407894611471267,0.011454418309070569,-0.7558054666190261,-0.6817078103836778,-0.11102507386356919
3.935,-0.6522133743963696,-0.3391826046561315,0.005707975190920145,-0.7559297024304104,-0.6791785564367316,-0.10913646903527585
3.943,-0.6548898861556491,-0.34424820141901424,-4.626212784852868e-05,-0.7560514666920564,-0.6766487131382366,-0.10727396036915415
3.951,-0.6574913315782513,-0.3492809982883829,-0.005788807535410889,-0.7560612391768289,-0.6741266444062148,-0.1054019849852752
3.959,-0.6600446631683674,-0.35428773868445074,-0.011540424570084973,-0.7560571525562509,-0.671605496114303,-0.10351608740404661
3.967,-0.6625785411089762,-0.3592771081977526,-0.017294788796401228,-0.7561062678501345,-0.6690809358585392,-0.10163454051469145
3.975,-0.665123082049158,-0.36425942896996855,-0.023052098354157557,-0.7561733803137263,-0.666555290009823,-0.09976008693021932
3.983,-0.6676998065402024,-0.3692440811316251,-0.0288120161569827,-0.7562370124563764,-0.6640298821439927,-0.09788477792965988
3.991,-0.6703201038594528,-0.37423801668864787,-0.0345737874034624,-0.7563201323175304,-0.6615031098364961,-0.09600819396131222
3.999,-0.6729893398062483,-0.37924594822977564,-0.040336559280430784,-0.7564338770160757,-0.6589742142481976,-0.09413453902836455
4.007,-0.6757829124250989,-0.3842090574421748,-0.04609315092974153,-0.7566035434637883,-0.6561511984828456,-0.09189919266166235
4.015,-0.6786079695922567,-0.38909129526707087,-0.051832513385359213,-0.7565020354593188,-0.6530400031990817,-0.08948915470439545
4.023,-0.6812602779511092,-0.39396208308437597,-0.05755762717036017,-0.7559327243935816,-0.6500249188428571,-0.08702325100664243
4.031,-0.6837110149141097,-0.3988021922752223,-0.06327344158440074,-0.7553840950687003,-0.64699605090152,-0.08451302392481796
4.039,-0.6859916706611244,-0.40359885801470785,-0.06898538835844636,-0.754981108323395,-0.6439604222096609,-0.0820330236512472
4.047,-0.6881576263797733,-0.4083538805848894,-0.07469815333230034,-0.7545063174419107,-0.6409298662513727,-0.07956918649811229
4.055,-0.6902498287456247,-0.4130740937555588,-0.08041422682687926,-0.7539301662944529,-0.6379065877141343,-0.07708714689906593
4.063,-0.6922992110150563,-0.41776795085088647,-0.08613470492436281,-0.7533788859516783,-0.6348817847657333,-0.07459604216696647
4.071,-0.6943402809121526,-0.4224464072404812,-0.0918601482374557,-0.7528810339271419,-0.6318535424667955,-0.07211358111496402
4.079,-0.6964049001824684,-0.42712121991815,-0.09759043745394802,-0.7523895039517776,-0.6288249819319471,-0.06963616032362374
4.087,-0.6985131077266544,-0.43180211550324277,-0.10332467944070256,-0.7519014157163473,-0.625796159878794,-0.06715645733375908
4.095,-0.7006747394233361,-0.43649600240524844,-0.10906161374661227,-0.7514437690695872,-0.6227651566486507,-0.06467712850914165
4.103,-0.70292232166444,-0.4411857917861015,-0.11479278278820626,-0.7510381852653922,-0.6196752517642539,-0.06207214365331115
4.111,-0.7053337902124177,-0.44574595746102563,-0.12048334965552332,-0.750625092751307,-0.6160450487485933,-0.05912053336259948
4.119,-0.7076077687359295,-0.45028284677763164,-0.1261368176569695,-0.7496512187501891,-0.6125501479217768,-0.056173836932207344
4.127,-0.7096645408655391,-0.45479648902919845,-0.13176843401024474,-0.7484708892662018,-0.6090486529276911,-0.053144014243555304
4.135,-0.7115143532194583,-0.4592671446984271,-0.13739012291741215,-0.7474753190525436,-0.6055401381696033,-0.05012146562245956
4.143,-0.713215348399471,-0.4636915609266099,-0.14301084461011282,-0.7465007003271578,-0.6020303474171103,-0.04713357086454906
4.151,-0.7148222617496884,-0.4680758125127058,-0.14863558586341608,-0.7453915412352594,-0.5985308336150403,-0.044136093345016114
4.159,-0.7163712687214367,-0.4724281366837966,-0.15426630331548186,-0.7442550052375183,-0.5950334907837895,-0.04111921364060844
4.167,-0.7178976272688544,-0.47675930896130847,-0.1599036912919276,-0.7431832091031914,-0.5915318497418687,-0.03810636439214132
4.175,-0.7194383239153765,-0.48108209913781597,-0.16554765998100063,-0.7421390691950474,-0.5880284390220432,-0.035103195950507704
4.183,-0.7210203224447032,-0.4854080352972696,-0.17119719447916548,-0.7410917162749686,-0.5845252722981442,-0.03209965721812669
4.191,-0.7226575273612408,-0.48974560871616735,-0.17685070308629758,-0.7400664025075545,-0.5810204492564903,-0.02909431061353107
4.199,-0.7243557701026067,-0.49410051924410237,-0.18250654157325652,-0.7390786103837867,-0.5775128417069784,-0.026092517551684402
4.207,-0.7262175639328454,-0.4983861206334046,-0.18812673049431883,-0.7382027082015399,-0.5737500520966528,-0.022806899463774677
4.215,-0.7281422958865065,-0.5025571324581355,-0.19367549215871183,-0.737103747393792,-0.5697124749573188,-0.019449329466789678
4.223,-0.72986499986912,-0.5067094149521543,-0.19917674383074147,-0.7354246861811782,-0.5657764501118336,-0.016027612891040377
4.231,-0.7313408401208363,-0.5108261622810266,-0.20465486626685792,-0.7337342660522581,-0.5618316018988869,-0.012538790517033327
4.239,-0.7326057641329626,-0.5148922076489333,-0.21012630450888725,-0.7322306103903311,-0.5578773768295573,-0.009082834750211433
4.247,-0.7337295306700913,-0.5189091106196324,-0.21560087366614855,-0.7306584909732634,-0.5539289971190016,-0.005650207627239112
4.255,-0.734765750524879,-0.5228846501960076,-0.22108276612690414,-0.7289588286339783,-0.5499905105359728,-0.0021955468492578234
4.263,-0.7357526223453608,-0.5268288058249562,-0.22657312850342048,-0.7272810207037836,-0.5460507043240694,0.0012726709928951863
4.271,-0.7367306687279829,-0.5307547058869515,-0.23207198903807313,-0.725670837702292,-0.5421062214991599,0.00473056983971798
4.279,-0.737737937625262,-0.5346764228510574,-0.2375784742389273,-0.7240722501665737,-0.5381610089283386,0.008181042079558054
4.287,-0.738798644002939,-0.5386055256304099,-0.24309083003701293,-0.7224758656415351,-0.534215577341631,0.01163404275041291
4.295,-0.7399240716744888,-0.5425501734067568,-0.2486069831778126,-0.7209137837306057,-0.530267496275588,0.015087007775098193
4.303,-0.7411575185094996,-0.5464826218523688,-0.254103633531483,-0.7194230285957564,-0.5262804413512523,0.018642207987694448
4.311,-0.7425999328429551,-0.5502477800832617,-0.25950185748962173,-0.7180212899567686,-0.5217957794399632,0.022402119908607965
4.319,-0.743896680778807,-0.5539767852963164,-0.2648233648666958,-0.7159888815851585,-0.5174473517500768,0.026140910439609755
4.327,-0.7449401658326202,-0.5576789718302946,-0.2701063049573298,-0.713679055159608,-0.5131010228726378,0.02998895378119215
4.335,-0.7457387944302081,-0.561333114516505,-0.275376680404503,-0.7115837756923038,-0.5087458960889544,0.0338366746806793
4.343,-0.7463612778713475,-0.5649349562810828,-0.28064911107836377,-0.7095361159766571,-0.5043881644437809,0.03764032602696066
4.351,-0.7468753562216257,-0.5684909808251808,-0.28592992027257313,-0.7073324849045863,-0.5000431756810002,0.04145302222820124
4.359,-0.7473249979419059,-0.5720103582831646,-0.2912206005297202,-0.7050851089284831,-0.4957017349850972,0.04529126549117102
4.367,-0.7477499767140738,-0.5755054244145006,-0.2965209776125741,-0.7029133656708786,-0.49135483820852244,0.04912618370012645
4.375,-0.7481921956511641,-0.5789909334781234,-0.30183014470014324,-0.7007799131629633,-0.4870052135010656,0.052948200117450384
4.383,-0.7486829843246685,-0.5824801585792576,-0.30714631231937783,-0.6986416350811413,-0.4826559373041137,0.056769729617200504
4.391,-0.7492381879558572,-0.5859827868402858,-0.31246717887339326,-0.6965246978170367,-0.4783049113473714,0.06059396612311474
4.399,-0.7498636990265144,-0.5895052695638716,-0.3177905516094617,-0.6944508538005043,-0.47395046502960003,0.06441427054450077
4.407,-0.7507154834999383,-0.5929034569690144,-0.32301951684171915,-0.6925663506950683,-0.46931711266798537,0.06846868154010455
4.415,-0.7515987241250919,-0.5961844521459687,-0.32813156031332635,-0.6903932313003183,-0.46453498919324865,0.07246159377532102
4.423,-0.7522468558613511,-0.5994414146263152,-0.33317500192065364,-0.68759645732611,-0.4598293919906995,0.07654787534011298
4.431,-0.7526174327050388,-0.6026570488389433,-0.3381928413938349,-0.6848390166428824,-0.455119575043895,0.08070807920166789
4.439,-0.7527585240823829,-0.6058171459887776,-0.3432086654853217,-0.6822907499136037,-0.45039720594995636,0.08482547972619603
4.447,-0.752751142573338,-0.6089244897757302,-0.34823306044694124,-0.6796513638368071,-0.44568319013240654,0.08891868990769858
4.455,-0.7526553488237759,-0.6119876703374336,-0.3532688775331687,-0.6768724165566682,-0.4409804611999313,0.09304011466111284
4.463,-0.7525131273149714,-0.6150179404538845,-0.35831583635849196,-0.6741271220116993,-0.43627529403416343,0.0971762578228379
4.471,-0.7523682125999933,-0.6180301905731858,-0.3633729363149749,-0.6714595916305188,-0.4315642554860384,0.10129889980430118
4.479,-0.752260995804388,-0.6210398934754862,-0.36843851400290983,-0.668802588635002,-0.42685245686833095,0.10541274302680304
4.487,-0.7522163213669089,-0.6240593268709818,-0.3735101631778468,-0.6661462378912231,-0.4221405053529308,0.10952988495773042
4.495,-0.7522446291379197,-0.6270969258710162,-0.37858534439095326,-0.6635276446870697,-0.41742544090301337,0.11364698831441533
4.503,-0.7523991766663531,-0.6301136390494948,-0.3836225337414172,-0.6609945889693232,-0.41269348789748594,0.11784270656862716
4.511,-0.7527954891819313,-0.6329326152124155,-0.3885015983327831,-0.6586315592962628,-0.40752195855531337,0.12210452569472796
4.519,-0.7530364395763929,-0.6357049774896817,-0.3932712164039023,-0.6555983867885744,-0.40249123421113087,0.12633104841227905
4.527,-0.7529961520113275,-0.6384466423748423,-0.397991818839162,-0.6522284921988803,-0.39746863971879165,0.13069041738219944
4.535,-0.7526828267036976,-0.6411359321092798,-0.40270194902698986,-0.6490975851883731,-0.3924354396294847,0.13505804409618705
4.543,-0.7521728041756184,-0.6437678555004505,-0.4074190026620341,-0.6460475765654059,-0.38739703859165076,0.1393721973085471
4.551,-0.7515443095676311,-0.6463493057138825,-0.4121484978074941,-0.6428256768383016,-0.38237335088724933,0.14369270534683753
4.559,-0.7508479679578919,-0.6488902886643251,-0.4168904611542361,-0.6395381142257404,-0.37735503850066365,0.14804505801176582
4.567,-0.7501262607563923,-0.6514043888932575,-0.42164362961776103,-0.6363341845373598,-0.3723301590767374,0.15239615195746037
4.575,-0.7494239941679615,-0.653907977886953,-0.4264064779604899,-0.6331825016621013,-0.367301201650152,0.15673072513944586
4.583,-0.7487759452189735,-0.6564157973510509,-0.4311767744852437,-0.630024052744647,-0.36227275647454604,0.16106301587184202
4.591,-0.7481996228212351,-0.6589384889587206,-0.43595180363480335,-0.6268815691464762,-0.35724288256674797,0.16539927124359632
4.599,-0.7477006239568098,-0.6614830350500176,-0.4407290611971275,-0.6237855545192983,-0.3522091091509685,0.16973190320620546
4.607,-0.7474644656864964,-0.6638767401768595,-0.4453598698523118,-0.6209284140849376,-0.34695731579100375,0.17419972671137707
4.615,-0.7472688211200467,-0.6661396410529496,-0.44983349470847944,-0.6178260632984585,-0.3415935192298907,0.17853331051028487
4.623,-0.7468220009859747,-0.6683740537016449,-0.45421971019666874,-0.6140422405633443,-0.33630331134995917,0.18296868055581417
4.631,-0.7460779994545517,-0.6705648923179366,-0.45857921087234477,-0.610279228708118,-0.33101251779995966,0.18749749692201867
4.639,-0.7450879110873325,-0.6726970135553936,-0.4629410267581209,-0.6067674672608789,-0.32570471445539795,0.1919815903445965
4.647,-0.7439396316890194,-0.6747730821047435,-0.46731540474516553,-0.6031803167411947,-0.3204044077903401,0.1964322282056088
4.655,-0.7427003527196971,-0.6768022180696862,-0.4717036417378546,-0.5994273655596118,-0.3151180197372234,0.20091299678565466
4.663,-0.7414147040708814,-0.6787963303457287,-0.476104192868978,-0.5956964016872432,-0.3098298707498648,0.20541461403247396
4.671,-0.7401268917944801,-0.680771229531902,-0.4805154074197473,-0.5920585650130081,-0.30453415473031775,0.20990192553477183
4.679,-0.7388791630933804,-0.6827434970648794,-0.48493534223276225,-0.5884392651120209,-0.29923695182143106,0.21437647740883214
4.687,-0.7376984266428988,-0.6847262626169224,-0.48936134896489225,-0.5848123291880492,-0.29394028526705895,0.21885410990431176
4.695,-0.7365953371757294,-0.6867283790087688,-0.4937906411917039,-0.5812184989372811,-0.2886407351034759,0.22333343252698867
4.703,-0.7356338686521973,-0.6887009463470539,-0.4981641888506614,-0.5777226815005849,-0.2833444241035856,0.22786731786236647
4.711,-0.7349419303361344,-0.6904537340792318,-0.502326384035741,-0.5744633969873196,-0.2776863621110426,0.2323364968316799
4.719,-0.7340851041875691,-0.6921543707842952,-0.5063535988220513,-0.5705342885174853,-0.2721731760160262,0.23675884810389025
4.727,-0.7329323372064618,-0.6938219426413506,-0.5103245859428869,-0.5662221876034006,-0.2666702556953435,0.2413308443376021
4.735,-0.7314948847634231,-0.69543475863368,-0.5142876727000418,-0.5621613723642462,-0.2611549340673349,0.24592168109100765
4.743,-0.7298520374216722,-0.6969873890511176,-0.5182614442060212,-0.5582237870368254,-0.2556303971960281,0.25045139715671993
4.751,-0.7280877289627492,-0.6984872388013281,-0.5222501877537953,-0.5541111032493187,-0.2501214227186237,0.2549812798810196
4.759,-0.7262569330409807,-0.6999450312870179,-0.5262526160026804,-0.5499047688288514,-0.2446203358929937,0.2595481050845736
4.767,-0.724402250212977,-0.7013749268126448,-0.5302666564451668,-0.545782832971581,-0.2391121838299064,0.26411803745942475
4.775,-0.7225681671883422,-0.7027940145202765,-0.5342904962240462,-0.5417307956054169,-0.2335982089658497,0.26866832941001295
4.783,-0.7207909124288827,-0.7042178193460407,-0.5383217990527518,-0.5376718347485796,-0.22808479353414501,0.2732131004261946
4.791,-0.7190889752357714,-0.7056574355693348,-0.5423576825033001,-0.5336171391760414,-0.22257090261200219,0.2777631106947487
4.799,-0.7174672112778104,-0.7071199383035607,-0.5463954860106197,-0.5296072057172716,-0.2170531056877687,0.28231108715565334
4.807,-0.7161022226315152,-0.7084492133366682,-0.5502789383152349,-0.5258220669996345,-0.21142577581743183,0.28690486807299553
4.8149999999999995,-0.7148468109739081,-0.7096117491268013,-0.5539560791448723,-0.5219819317114793,-0.2056695492859797,0.2913061922750666
4.823,-0.7133414097018385,-0.7107400856198245,-0.5575185800381979,-0.5174129093155222,-0.20000117317995425,0.2957801606614705
4.8309999999999995,-0.711528413371922,-0.7118254065789591,-0.5610460495873388,-0.5127435232149478,-0.1943375836614658,0.30038021883506527
4.839,-0.7094528753185578,-0.7128498211501393,-0.5645759412564599,-0.5083684368479946,-0.1886528374428469,0.3049515225451058
4.8469999999999995,-0.7072034514774748,-0.7138144026666948,-0.5681203050516777,-0.5039950142219847,-0.18296915197555386,0.3094720016185404
4.855,-0.7048557925318182,-0.7147288358229948,-0.5716802367944966,-0.49942990855489766,-0.17730220193431645,0.31401407024553407
4.8629999999999995,-0.7024586583072328,-0.7156053915510041,-0.5752534179471995,-0.4948377092395275,-0.17163756138445407,0.31858783077804365
4.871,-0.7000548693472126,-0.7164599340653952,-0.5788376743768149,-0.490349709619498,-0.16596401978748077,0.3231529631354251
4.879,-0.6976873607926679,-0.7173098221152392,-0.5824310290920733,-0.485906440398455,-0.16028667145161446,0.32769921843797967
4.8870000000000005,-0.6953866883022393,-0.7181693904067865,-0.5860308610089389,-0.4814472595497432,-0.1546106366056259,0.332244879587547
4.895,-0.6931656668178832,-0.7190482800911004,-0.5896342089363733,-0.4770032562033255,-0.14893319912137493,0.3367953841006628
4.9030000000000005,-0.691099025461333,-0.7198902377339342,-0.5931699665840311,-0.47266248081802287,-0.1432731268778582,0.3413758535607716
4.911,-0.6893274479988385,-0.7204999279575217,-0.5964547715337813,-0.4686104798283961,-0.13735508735416246,0.3457762570090619
4.9190000000000005,-0.6873818371501912,-0.7210567702699526,-0.5995829335731271,-0.4639360729793549,-0.13157729980261657,0.3501203438574354
4.927,-0.685138295205407,-0.7215801323603008,-0.6026472538100256,-0.4588479329040278,-0.12580911912011672,0.35461954587948785
4.9350000000000005,-0.6826154666508071,-0.7220483655665975,-0.6057033250126826,-0.45400010384674205,-0.12002752826852525,0.3591499873845425
4.943,-0.6798906337667594,-0.7224558625295012,-0.608771343898062,-0.44932222157069157,-0.1142319521049151,0.3636167251396527
4.951,-0.6770475560332176,-0.7228106321657597,-0.6118555406410211,-0.4444872601168526,-0.10845072616851859,0.36807383512093494
4.959,-0.6741431124465853,-0.7231241166875924,-0.6149540783348284,-0.43952863931216024,-0.10268023042356322,0.3725693058196047
4.967,-0.6712183135568122,-0.7234104124375422,-0.6180643085387656,-0.43464178143622734,-0.09690351483888282,0.3770746302341479
4.975,-0.6683143614446827,-0.7236862613942483,-0.6211842217044916,-0.42984328523782134,-0.09111915651567237,0.38155947634168896
4.983,-0.6654664902714442,-0.7239671616060344,-0.6243115609185539,-0.42504399010921423,-0.08533485175470101,0.38603414048353635
4.991,-0.6626934532383686,-0.7242642073150085,-0.6274434616654974,-0.42023307207313687,-0.07955149607765044,0.39051421675891884
4.999,-0.6599993243311575,-0.7245841923170682,-0.6305771951753174,-0.4154571658286401,-0.07376504002000317,0.39499522014332467
5.007,-0.6576244605219799,-0.7247183287950874,-0.633497719714927,-0.4109631083606895,-0.06788985995732588,0.399419881429643
5.015,-0.6552906663075762,-0.7247145181516066,-0.6362010087381131,-0.40635199754530715,-0.062025908816417896,0.40361032121836793
5.023,-0.6526831999285481,-0.7246788344342292,-0.6387873345294155,-0.401068501336026,-0.05620248962492713,0.40789630144466127
5.031,-0.6497783407756828,-0.724596810743698,-0.6413405942895158,-0.3957352689155562,-0.050385269737024174,0.41229833266887184
5.039,-0.6466314719962201,-0.7244529677189062,-0.6438976860293062,-0.3906968026041917,-0.04454346896815231,0.41666849658281535
5.047,-0.6433277549858198,-0.7242505140090714,-0.6464701838847757,-0.38566579506038723,-0.038702022913065015,0.42098846692423564
5.055,-0.6399389544523837,-0.7240005521927237,-0.6490588398994843,-0.3804481283086365,-0.03287702380548563,0.4253283220282409
5.063,-0.6365121683624437,-0.7237162104975008,-0.6516608984153409,-0.37519681049656173,-0.02705498285404051,0.42970038238130304
5.071,-0.633087107281133,-0.7234132078133522,-0.6542738242458226,-0.3700505369214606,-0.021223792852259393,0.4340653556165126
5.079,-0.6297024334549022,-0.723108157658964,-0.6568955359555622,-0.3649567526654569,-0.015388027926600323,0.4384099472274965
5.087,-0.6263855873656912,-0.7228146389260122,-0.6595234505819407,-0.3598431213903335,-0.00955396867036118,0.4427520734642725
5.095,-0.6231472253952397,-0.7225415073525916,-0.6621546268724954,-0.3547320811613317,-0.0037196579152620757,0.44710014264618714
5.103,-0.6200687419644488,-0.7222271657152799,-0.6647153230202578,-0.34971663847273815,0.0020922222670165525,0.4514496680847735
5.111,-0.6173036016847817,-0.7216767915422677,-0.6670030653871111,-0.3450142780265666,0.008027719244693365,0.4555273657283001
5.119,-0.6143487667340866,-0.7210749283369386,-0.6691140205226676,-0.33978198167173845,0.013843782306923735,0.45954314348126957
5.127,-0.6110970499602537,-0.7204383547484614,-0.6711509466947048,-0.33412919500252825,0.01965130926668568,0.46370519117073883
5.135,-0.6075786537786545,-0.7197456113537726,-0.6731745309758734,-0.3286736488992612,0.02547152540790787,0.46791034664570486
5.143,-0.6038664110603849,-0.7189913093136475,-0.6752082357223328,-0.32342327628058376,0.0313096360468057,0.47205782109706185
5.151,-0.6000397311997263,-0.7181841985999604,-0.6772583480306702,-0.3180585240228999,0.0371373128633774,0.47618508898673273
5.159,-0.5961564081934689,-0.7173369293285239,-0.6793237091775852,-0.31254977937274786,0.042952401186711064,0.4803460356334206
5.167,-0.5922570235702178,-0.7164637720659197,-0.6814013806913346,-0.30708422941876945,0.048771214679388386,0.4845238339509441
5.175,-0.5883792555437051,-0.7155807729247359,-0.6834890263358746,-0.30171824817445314,0.054598683062797804,0.48868431455225814
5.183,-0.5845559308528667,-0.7147030387921776,-0.685584418917661,-0.2963671013511662,0.060427449546159195,0.4928300181538843
5.191,-0.5808056631801906,-0.7138416621510801,-0.6876847797078218,-0.2909922691053901,0.0662541557779397,0.496978864468276
5.199,-0.577132299086446,-0.7130032272684925,-0.6897873091594926,-0.28563490920248347,0.07208235899561544,0.5011316708299667
5.207,-0.573752384143452,-0.7120158535121872,-0.6917189446931085,-0.28049580531019336,0.07792720762774774,0.5051800461990199
5.215,-0.5704910557838812,-0.7108629173375896,-0.6933946163205524,-0.27543546838772626,0.08370731307394852,0.5089434035066533
5.223,-0.5669618242141663,-0.7096775516210228,-0.6949250372027089,-0.26978017444470437,0.08946015514966987,0.5127574446010188
5.231,-0.5631465135504827,-0.7084484421253414,-0.6964044949851464,-0.2639454713417364,0.09519990154707525,0.5166956078825446
5.239,-0.5590974565098508,-0.7071587443719487,-0.697878533572287,-0.25837202318859953,0.10096308677401211,0.520632006266438
5.247,-0.5548904236623686,-0.7058098856037045,-0.6993646905957336,-0.2529037688557856,0.10673509185419938,0.5245145228311134
5.255,-0.5505959697094918,-0.704413294264068,-0.7008671869007435,-0.24728462447129163,0.11249405719835082,0.5283970100415374
5.263,-0.5462636895647863,-0.7029826877519874,-0.7023842999978696,-0.24157440852170042,0.11824510448354886,0.5323123469271502
5.271,-0.5419314096574226,-0.7015329718865635,-0.7039131915807735,-0.23593928042354184,0.12400258728019153,0.5362331642851386
5.279,-0.5376340820373873,-0.7000797259518468,-0.7054515736832796,-0.23038467337765622,0.12976699975999928,0.5401345726215165
5.287,-0.5333986797273056,-0.6986364858414236,-0.7069970629122659,-0.2248253116747594,0.1355309941039371,0.5440261406135063
5.295,-0.5292375616749201,-0.6972125081132212,-0.7085468175765461,-0.2192457185131711,0.1412932017484696,0.5479226328643243
5.303,-0.5251988817470208,-0.6957762663129019,-0.7100605558708191,-0.21370797674753161,0.147032876569817,0.551818565681458
5.311,-0.521536528069273,-0.6940938806000929,-0.7113014496662009,-0.20851098313830763,0.15276435535437916,0.555380570188885
5.319,-0.5177118635054168,-0.6923557197855459,-0.7123382300466252,-0.2030081144970075,0.15838950710904864,0.5588377687341453
5.327,-0.5136033726834945,-0.6905857809994806,-0.7132771102955031,-0.19705392123846943,0.1640114029655546,0.562411550066984
5.335,-0.5092467649423771,-0.6887635161948067,-0.7141866708080817,-0.19116868082487093,0.16963721176946134,0.5660527446363952
5.343,-0.5047056932001324,-0.6868817801084219,-0.7150977785279844,-0.18551948510985783,0.17528477093807826,0.5696577963502003
5.351,-0.5000512446257046,-0.6849481550186534,-0.7160223766666496,-0.17985377348830012,0.18093107841710587,0.573228164007948
5.359,-0.4953409237303772,-0.6829757855789671,-0.7169625095907017,-0.17404018862706794,0.18656493277313047,0.5768166942154593
5.367,-0.4906154377140499,-0.680978764441587,-0.7179160464760175,-0.168208106851099,0.1921971696291962,0.5804292848382122
5.375,-0.4859085956665652,-0.6789716580278302,-0.7188804321951734,-0.1624671710916048,0.197837097565694,0.5840350958166916
5.383,-0.4812496317051407,-0.6769683947120786,-0.7198534587242369,-0.15677240763205313,0.20348091961925263,0.5876232303083064
5.391,-0.47665699818913243,-0.6749799206835192,-0.7208326212314953,-0.1510558424844155,0.20912284690040117,0.5912080742795114
5.399,-0.4721357257788288,-0.6730129286654263,-0.7218151629010228,-0.14532970285744762,0.21476386499831523,0.5947983420233136
5.407,-0.46781697127243405,-0.6709735258559544,-0.7227143629943837,-0.13970042014468786,0.22039023006345904,0.5983078083858953
5.415,-0.4637708041634028,-0.6687238989958093,-0.7233397005817794,-0.134346551567742,0.22587060227720013,0.6014635605459295
5.423,-0.45948777171616584,-0.6664376931167046,-0.723780361573696,-0.12861921770110962,0.2313258898116315,0.6045907652591094
5.431,-0.45493251500114607,-0.6641136306231958,-0.724138290445457,-0.12256476860467425,0.2367650195152997,0.6078275359919054
5.439,-0.45015368758539065,-0.6617338617037456,-0.7244704933711086,-0.11663244286970409,0.24221713152707736,0.6111059699181052
5.447,-0.4452153855220544,-0.6592959961880505,-0.7248040444167136,-0.11089312670365237,0.2476866496212624,0.6143468284235674
5.455,-0.4401830027286735,-0.6568097828773176,-0.725150241552293,-0.10511145097412422,0.2531533268999828,0.6175633602494406
5.463,-0.4351082470698131,-0.6542892679518175,-0.7255113492074345,-0.09920431641565353,0.25860978927033607,0.6207990756346486
5.471,-0.4300292208678096,-0.6517488943913099,-0.7258856303503736,-0.09329799177064713,0.2640663105421357,0.6240531265885068
5.479,-0.42497763574544045,-0.6492027966016192,-0.7262707486255264,-0.08747572049593666,0.26952975308977667,0.6272985421705561
5.487,-0.4199788602846892,-0.6466637902555377,-0.7266645062277499,-0.08168777659839188,0.27499599544787223,0.6305285836591246
5.495,-0.41504701237846486,-0.6441415495723319,-0.7270643903817495,-0.07587658578250034,0.2804602270523624,0.6337566043598404
5.503,-0.41023281978367354,-0.6416078090958637,-0.7274391113823606,-0.07006777508282314,0.2859117133892033,0.636965991536564
5.511,-0.40580865906360675,-0.6388403752495,-0.7275640404472297,-0.06455810111169535,0.2911985231050611,0.6397890105155053
5.519,-0.40121962043016257,-0.6360259138533557,-0.7274775120091599,-0.05891763502068015,0.29641393017815165,0.6425128250597902
5.527,-0.39637505808565,-0.6331822057979144,-0.7272825015159636,-0.05291087193926858,0.301627799879304,0.6453162713296932
5.535,-0.3913184988329643,-0.6302915784432974,-0.7270442850210852,-0.046880392176262387,0.3068412279539352,0.6481849009866272
5.543,-0.3861059341489579,-0.6273481742123348,-0.7267964692081108,-0.04104419522007463,0.31207323407208243,0.6510403173254424
5.551,-0.38079655710172755,-0.6243585079549474,-0.726555504478883,-0.0352600891835384,0.3173106369514711,0.653862923041542
5.559,-0.3754406275089659,-0.6213351985065971,-0.7263274773457651,-0.02937187741037528,0.3225402114689544,0.6566885130272944
5.567,-0.37007546768645483,-0.6182918440038216,-0.7261126032116598,-0.023430805831278878,0.32776565966941185,0.659534335710708
5.575,-0.3647303894811671,-0.6152412676883658,-0.7259090884776613,-0.017546082103555793,0.3329956326284407,0.6623820814965491
5.583,-0.359428915280537,-0.6121950583725155,-0.7257149743906872,-0.011718075204675937,0.3382301267535093,0.6652160960218296
5.591,-0.35418567349352426,-0.6091625159516489,-0.725528134336912,-0.005884292548482772,0.34346407439127,0.6680425794816811
5.599,-0.34900455338786607,-0.6061495078058678,-0.7253461369540126,-2.946417059890294e-05,0.3486961258589485,0.6708720263732237
5.607,-0.3441215831072588,-0.6030028197666875,-0.7250464340530689,0.00571432384587256,0.3538497434233303,0.6734813382559768
5.615,-0.339354114201579,-0.5997112277802517,-0.7244900398465344,0.011238341863412327,0.3587482128270185,0.67579202458945
5.623,-0.3343401732436906,-0.5963948921620048,-0.7237756806925688,0.017028366070533263,0.36369532623748224,0.6781115118226495
5.631,-0.3291027639872537,-0.5930394745318566,-0.7229849557630033,0.023049943535188522,0.36861978787478655,0.6805071750506073
5.639,-0.3236917842227749,-0.5896340047212529,-0.7221639483412874,0.028986291651329044,0.37355701224321347,0.6829341975615746
5.647,-0.31816242609500733,-0.5861795586658127,-0.7213377960628646,0.034767826576536986,0.3785080954386766,0.6853364810409879
5.655,-0.3125672717918304,-0.5826861561569849,-0.720519263057696,0.04056124924345861,0.38345960781998034,0.6877187688452819
5.663,-0.3069481676513375,-0.5791673634812948,-0.719712890696103,0.0464476879156579,0.3884043876787402,0.6901117793145257
5.671,-0.3013368531925362,-0.5756364455590859,-0.7189186765784017,0.052346100290501685,0.393348381810978,0.6925188565254592
5.679,-0.2957584712229142,-0.5721051470262255,-0.7181351439231314,0.05818392368295955,0.3982970885708541,0.6949215157432578
5.687,-0.29023093309792536,-0.5685833441254111,-0.7173605467491138,0.06398836407124753,0.4032483338932096,0.6973120950073444
5.695,-0.2847624389832193,-0.5650782557116978,-0.7165928227321086,0.06980970508064965,0.4081981475417793,0.6996991388314564
5.703,-0.2794382465087386,-0.5615413737592245,-0.715796323568731,0.07563478498912657,0.41313571154442563,0.7020079946696542
5.711,-0.2744531485388002,-0.5578002244801405,-0.7147667174690175,0.08119305933768706,0.4177313678552341,0.7039077627938166
5.719,-0.2692753813888258,-0.554029932744271,-0.713545294209359,0.08676680934337222,0.42234381434558355,0.7057469753226684
5.727,-0.2638819306126283,-0.5502298124745391,-0.7122195041670931,0.0926116374737016,0.42694196657118244,0.707634779668985
5.735,-0.2583157226865467,-0.5463871928171535,-0.7108435499051318,0.0985306691179848,0.4315401178759277,0.709576852531244
5.743,-0.2526249856454825,-0.5424991737078821,-0.7094487255793167,0.10430842300766185,0.43615164096484005,0.7115203725873673
5.751,-0.24685877721652272,-0.5385718369266437,-0.7080530510033345,0.11000133432653447,0.4407715290040066,0.713438267312581
5.759,-0.24105877106199447,-0.5346168088715375,-0.7066655821892516,0.11575244451190558,0.44538805968147965,0.715350394338059
5.767,-0.23525673807117364,-0.530646886253825,-0.7052892168117602,0.12156642496693015,0.4500002984038325,0.7172762250857216
5.775,-0.2294773542084041,-0.5266734299155136,-0.7039237468161623,0.12735734122445264,0.45461438375668806,0.7192081259277314
5.783,-0.22373917514469532,-0.5227058221136307,-0.7025680159878647,0.1330970940190066,0.45923230138755855,0.7211315258261308
5.791,-0.2180526514479908,-0.5187513331250058,-0.7012205142723431,0.13882909459872161,0.46385072495182644,0.7230464272096064
5.799,-0.2124194202800993,-0.5148145629199838,-0.6998793477518985,0.14458319793931595,0.46846734865338213,0.724961443928346
5.807,-0.20711831164682248,-0.5107293214329811,-0.6984220172200768,0.1502551795317264,0.47289515928516757,0.7265515930185842
5.8149999999999995,-0.20184713411543687,-0.5065457732878,-0.6967368000672689,0.15566090142196432,0.4770759479100368,0.7279134024372658
5.823,-0.19636952959345688,-0.502341025058147,-0.6949108106881159,0.16119666766317353,0.48131517661650847,0.7292710981538697
5.8309999999999995,-0.19071654858068765,-0.4981017020349059,-0.6930083651254364,0.16695579442215136,0.48553256192156447,0.7306800255431041
5.839,-0.18492912748087686,-0.4938216675973415,-0.6910683766474435,0.17270162287206547,0.48975682677017307,0.7321250789082958
5.8469999999999995,-0.1790523944524134,-0.48950248844011846,-0.6891146296737318,0.17830425349956025,0.4939936032944052,0.7335588328892984
5.855,-0.17312850693755877,-0.4851523584800681,-0.6871614439868914,0.1838689284631827,0.49823486168969655,0.734971377109428
5.8629999999999995,-0.1671905533210003,-0.4807830553603294,-0.6852160139397778,0.18950462375825383,0.5024718547774425,0.7363854419737947
5.871,-0.16126358493353354,-0.47640618584927186,-0.6832806222021697,0.19517982411992785,0.5067063611902647,0.7378121692795174
5.879,-0.1553671842588562,-0.47203125918205746,-0.6813552052031602,0.200819288859313,0.5109435538739522,0.7392402823857189
5.8870000000000005,-0.1495146062749697,-0.4676656084606945,-0.6794389405384758,0.2064197810609527,0.5151835537387042,0.7406592157028884
5.895,-0.1437109185177956,-0.4633144849120656,-0.6775305693883382,0.21202618612122626,0.5194230477820989,0.7420723859667042
5.9030000000000005,-0.13803243621686612,-0.458939776841488,-0.6756071380756294,0.21765998306433731,0.5236440071221269,0.743388552519967
5.911,-0.13267135589054035,-0.4543854502074094,-0.6734857452545286,0.2230520771268032,0.5274113873211119,0.7442860547019956
5.9190000000000005,-0.12715024083352944,-0.4498107008861627,-0.6711903084464703,0.22828235773498173,0.5312319597102153,0.7451228741627665
5.927,-0.12146181203823758,-0.4452106247812537,-0.6687918487040188,0.23371543321962251,0.5350364018078864,0.7459746147192883
5.9350000000000005,-0.11563751819347079,-0.44057720712515724,-0.6663362686960124,0.23930850498302592,0.5388361057590112,0.746876676025015
5.943,-0.10971508080133852,-0.4359088464227412,-0.663852259481776,0.24481942664660528,0.5426439854153715,0.7477977668189082
5.951,-0.103734618191484,-0.4312093844327034,-0.6613583830104011,0.2502026583439432,0.5464630252267648,0.7486996143829945
5.959,-0.09772955472088984,-0.4264876209733801,-0.6588661068610584,0.25559189506739655,0.5502829902515582,0.7495862505076092
5.967,-0.09172433671325919,-0.4217544448341517,-0.6563810949116693,0.26105640173099554,0.5540984424847455,0.7504801271001567
5.975,-0.08573792034109218,-0.41701953109640755,-0.6539051568448908,0.2665371787576496,0.5579130604351503,0.7513846068556349
5.983,-0.07978503586114005,-0.41229012943910615,-0.651438400628729,0.2719748770676378,0.5617307682159849,0.7522865546400777
5.991,-0.0738739299418345,-0.40757147628838375,-0.6489803151265647,0.27738755005289883,0.565550215409913,0.7531795977599405
5.999,-0.06800529699344615,-0.4028670181265568,-0.6465298793227587,0.2828171878940773,0.5693684151654574,0.7540696190457101
6.007,-0.062429977830089634,-0.39804148455398813,-0.643992957731018,0.2882176435738324,0.572931160833198,0.7546079641500034
6.015,-0.056895897936426465,-0.39313616561859543,-0.6412585188677422,0.29325910809948175,0.5762288960457376,0.7549379205756432
6.023,-0.05121405983982541,-0.38821478443301416,-0.6383959318067332,0.2982923835842999,0.5795950732285133,0.7552370633021415
6.031,-0.04540437645087092,-0.38326784632693034,-0.6354571946544105,0.30356903946702074,0.582937771897388,0.7555675403967639
6.039,-0.039493957622897646,-0.37829253550162,-0.6324754575834719,0.30891878256597716,0.5862810223633863,0.7559424406389663
6.047,-0.03351787321355015,-0.37328949473919426,-0.6294724411179411,0.3141349108832894,0.5896352314066471,0.7563191898120065
6.055,-0.02750933867685834,-0.3682634373230229,-0.6264629103461825,0.31925937503788715,0.5929974146557724,0.7566730149643153
6.063,-0.021492176737521795,-0.3632229390493693,-0.6234559547371195,0.32443208208106133,0.5963574312579301,0.7570197113705639
6.071,-0.0154832815637036,-0.35817738077099026,-0.6204558905126643,0.32967275720114797,0.5997134464665681,0.7573779317580804
6.079,-0.009496826773520262,-0.3531341250801603,-0.6174641409983996,0.33490411545330767,0.6030703233657553,0.7577432250464513
6.087,-0.003543266487472607,-0.3480981512442618,-0.6144809725261382,0.3400909985143845,0.6064302702514714,0.7581025487725412
6.095,0.0023736095595463524,-0.3430728839363262,-0.611506100736495,0.34526974061531357,0.6097907747471192,0.7584543396436638
6.103,0.00819144546866113,-0.3380306076500519,-0.6085245608265035,0.35048758966080173,0.6131206706750723,0.7586974725741715
6.111,0.01372973803306099,-0.3328434149778019,-0.6053809531453584,0.35546875405056744,0.6159184387907191,0.7585276964193621
6.119,0.01937017539860353,-0.3276437923166329,-0.6020872052555992,0.3601513116373414,0.6187951506477596,0.7582937198032074
6.127,0.02511939746985803,-0.32242655440941625,-0.5986994859541372,0.36498298630619663,0.6216542509414129,0.7580494968763318
6.135,0.030962936741350866,-0.3171881622395851,-0.5952552804423368,0.37003824714224676,0.6245052883864846,0.7578508844497733
6.143,0.03687550119939775,-0.3119282319884036,-0.5917789791840429,0.3750623226526222,0.6273601540130995,0.7576825577823438
6.151,0.04282598763465906,-0.3066478782098194,-0.5882874781131715,0.37993433047067304,0.6302269866224712,0.757500526565579
6.159,0.04879055786607367,-0.3013518632856709,-0.5847925463190498,0.38477262269636414,0.6330973420236159,0.7572979322858071
6.167,0.05475477638922488,-0.2960479364046291,-0.5813011400855936,0.38968945575654734,0.6359634296482266,0.7570977299104857
6.175,0.06070728216335208,-0.29074343195258745,-0.577816390516678,0.3946503566694193,0.6388270738358495,0.7569104365138521
6.183,0.06663735882236121,-0.28544323175437647,-0.574339431317326,0.39957805528943036,0.6416930652219852,0.7567250632140059
6.191,0.07253842202417271,-0.2801503314947258,-0.5708706346570089,0.40446983614911725,0.6445614746171469,0.7565315842824969
6.199,0.07841032571345874,-0.27486682214809655,-0.5674098052024537,0.40937176461542135,0.6474292496083187,0.7563333678419877
6.207,0.08405090197430898,-0.26949309323111326,-0.5638839844436694,0.4142574416318383,0.6499847323946177,0.7557769002205053
6.215,0.0896257104238476,-0.26406072536105274,-0.5601934724149098,0.41871328183231205,0.6522710688819711,0.7550273932916962
6.223,0.09527878433029002,-0.2586191176513264,-0.5563926184894257,0.42306970657479015,0.6546296558363576,0.754228014824438
6.231,0.10100766996139665,-0.2531632133159434,-0.552523132254148,0.4276832924817957,0.6569639252176449,0.7534464290159946
6.239,0.1068015077382336,-0.24769319272309342,-0.5486121677983125,0.4324288155046365,0.6592946349612667,0.7527130000695124
6.247,0.11263576302983758,-0.24220862463719417,-0.5446780820084172,0.43705212989328546,0.661634625673936,0.7519891897293771
6.255,0.11848669093821051,-0.2367101970984038,-0.5407342553117003,0.4415524009169629,0.663983975314328,0.7512422779686432
6.263,0.12434137080304986,-0.23120235161425207,-0.5367898216265736,0.4460842894316568,0.6663323516351136,0.7504835609696983
6.271,0.13019272021897077,-0.22569145295483217,-0.532849778566872,0.4506987337337649,0.6686761283423754,0.7497353324251428
6.279,0.13603254738963955,-0.22018237110768002,-0.5289162797001756,0.4553204079352109,0.6710197648676806,0.7489972831618488
6.287,0.14185291505713238,-0.2146776628039211,-0.5249902432168572,0.45989617425239127,0.6733664618418906,0.7482556742862894
6.295,0.14765084912012938,-0.2091788928738385,-0.5210720272579454,0.46445503104225283,0.6757143142788822,0.7475062382951592
6.303,0.1533827042377327,-0.20366777034957995,-0.5171514555229422,0.4690486529937572,0.6780188106213734,0.7466464718091252
6.311,0.1588867002160672,-0.19805521534190262,-0.5131002490616527,0.473377354463834,0.6797400484591885,0.745388631335878
6.319,0.1644188132855895,-0.19243733958851283,-0.5089243373726315,0.477331250210542,0.681558704408805,0.7440625100684439
6.327,0.16999560488810506,-0.18681180111864126,-0.5046687686878055,0.48140733366658983,0.6833573012552918,0.742711334815688
6.335,0.1756219066099689,-0.1811791422383484,-0.500363829084618,0.48574436852015035,0.685146164918196,0.7414021675817999
6.343,0.18128595757355104,-0.17553981516133454,-0.4960293746191109,0.4900804036192459,0.6869362271863446,0.7401281592585693
6.351,0.186966711969756,-0.16989190773550522,-0.49167958173264914,0.49425475717330825,0.6887379992213303,0.7388433004237971
6.359,0.1926514336263292,-0.16423558415848216,-0.48732493659689524,0.49837578221240486,0.6905441760871476,0.7375358546517923
6.367,0.19833709872740268,-0.15857468033235556,-0.48297209194623125,0.5025747903544429,0.6923463119484845,0.7362286712901511
6.375,0.20402061409395866,-0.15291357932488392,-0.47862432874369,0.5068294675734326,0.6941454570199008,0.7349352981002131
6.383,0.20969534522842892,-0.1472545663692113,-0.47428305956200845,0.5110558161400385,0.6959465979061177,0.7336460344374931
6.391,0.21535616223236342,-0.14159842756085794,-0.4699489875851057,0.5152417245203149,0.6977503796549618,0.7323496406035392
6.399,0.22100301641028253,-0.13594598724619011,-0.46562229232291763,0.5194336281601104,0.6995538758661297,0.7310482970459748
6.407,0.22649535436354284,-0.1302367763548533,-0.46124596809275165,0.5235765986119287,0.7010023732119617,0.729402283315908
6.415,0.2318918369394538,-0.12449275344604072,-0.4567358542284783,0.5272441049808676,0.7021880108337175,0.7275727237199696
6.423,0.2372911876204329,-0.11874760630046044,-0.452135824506791,0.5307786747238796,0.7034444910782574,0.7256831663069914
6.431,0.2427107137204505,-0.11300117661625642,-0.4474796836142714,0.5345813770185814,0.7046761673683584,0.7238048981333804
6.439,0.24815628971979375,-0.10725610405038921,-0.44278924085349214,0.5385416417902751,0.7059023754170921,0.7219751427404617
6.447,0.25361514645191185,-0.10151051206936401,-0.43807924153214817,0.5423861694142347,0.7071367375530917,0.7201572026814542
6.455,0.25907494249224516,-0.09576084306475874,-0.4333607163767219,0.5460986868890259,0.7083803700936047,0.7183163476482974
6.463,0.26453510325334495,-0.09000697651247691,-0.4286414442424258,0.5498368889370426,0.7096232836149667,0.7164626517228196
6.471,0.269998818711624,-0.0842516352746685,-0.4239257758067314,0.5536596779639447,0.7108616164472883,0.7146192222030017
6.479,0.27546393269028346,-0.07849674469402323,-0.41921561877279867,0.5574928567495143,0.7120996509641611,0.712786879614324
6.487,0.280925111947977,-0.07274237142474238,-0.4145118342613987,0.5612797025841298,0.7133407024997185,0.7109520736684107
6.495,0.2824710927363876,-0.06696353257910115,-0.4101215115135526,0.5790243074561023,0.692399833704223,0.6279510769141528
6.503,0.27839863483753025,-0.06397684414157556,-0.4062433037987576,0.6072771965557213,0.7047885026509073,0.5765647251216404
6.511,0.27401774196574014,-0.06238782049162861,-0.40291760761102235,0.6115932582771983,0.7184086873646347,0.5941711978302617
6.519,0.27050093975133027,-0.06066505244922382,-0.4002493764675039,0.6137412026354103,0.7173096146562985,0.5986101940823358
6.527,0.26875832956689827,-0.05922241765127012,-0.39780500147698206,0.6204397543038147,0.7115369091785668,0.5832917723647197
6.535,0.2701106898254153,-0.05933479753828941,-0.3951491094043176,0.6265333772553521,0.7098842879766165,0.5673004198917058
6.543,0.27435094955548944,-0.061209200616291426,-0.3923212255092894,0.6296616287912022,0.7141687045851635,0.5628532126941339
6.551,0.28051749531632364,-0.06403757585402481,-0.3893088758768535,0.6296060939631087,0.7169370770549115,0.5596543857999325
6.559,0.2868085613967839,-0.06681143840117088,-0.38611482369382166,0.6320357909650522,0.7203517349534145,0.5533184823328723
6.567,0.29275476317651883,-0.06926722680752384,-0.3828218781885422,0.6357763808349799,0.7221129578677505,0.5453440149796487
6.575,0.29823328001688587,-0.07141385805854839,-0.37943663473035016,0.6403534391884347,0.7230982881318893,0.5370852905505217
6.583,0.303474995270709,-0.07343428115067141,-0.3759489313879163,0.645177917649796,0.7241434311483435,0.5298617991258787
6.591,0.3087373012244168,-0.0754893993852015,-0.372361244831767,0.6497235522462694,0.7254439192305915,0.5242559242015155
6.599,0.314120157554564,-0.07756469570614932,-0.36859206443655257,0.6537534683897595,0.7259148733709333,0.5170488278387309
6.607,0.3194383947685857,-0.07960736359536646,-0.364594116433941,0.6576862118795677,0.7263539277709192,0.5089987543060506
6.615,0.32456203821606344,-0.08160100628999523,-0.3604105184169173,0.6626261879076609,0.7286709411313996,0.5029946205751825
6.623,0.3298596832514491,-0.0836495967963291,-0.3561169326366391,0.6659403829776624,0.7287325961012945,0.4972564546783582
6.631,0.3350350715034409,-0.08566699644330455,-0.35173102466725936,0.6695930761568323,0.7295041931201096,0.492251522186268
6.639,0.34018107340056236,-0.08769102061627798,-0.3472814542642846,0.673061055617771,0.730351590173087,0.4884190713134542
6.647,0.34532531268971045,-0.08972385519114923,-0.3427898003720351,0.6763052108606522,0.7310711464819564,0.4853799508756378
6.655,0.3504528792123125,-0.09174951121054065,-0.33826103260695906,0.6794429535528459,0.731681837643082,0.4827248608991095
6.663,0.35555181524542956,-0.09375565934895569,-0.3336930565463705,0.6825658929903953,0.7322167295094362,0.480172410582969
6.671,0.3606230319133026,-0.09574034008117671,-0.32908349974799567,0.6857094248260176,0.7327072104847838,0.4776104599737261
6.679,0.36567598250276756,-0.09770927051172151,-0.3244320327292831,0.6888630523172812,0.7331794618725498,0.475051423653265
6.687,0.3707213979177988,-0.0996698221535528,-0.3197402947015071,0.6920003631310103,0.7336473326305688,0.4725439574079431
6.695,0.3757659875905697,-0.10162635572926959,-0.3150109113466284,0.6951047622000694,0.7341109299696109,0.4701097080394039
6.703,0.38079414498740594,-0.10357211329582938,-0.31024333312352503,0.6981679888017385,0.7345678896481775,0.4677526974041015
6.711,0.3856421745522356,-0.10543741245881044,-0.3054045208725702,0.7010955914474466,0.7348948840986189,0.4656745388743726
6.719,0.39039962590309507,-0.10725079580731744,-0.30052941343390227,0.703937940786314,0.7348836554268461,0.46353929172941744
6.727,0.39512194599415995,-0.10904516125251007,-0.29564337975324584,0.7066735088155585,0.7346685603459759,0.4614579294751371
6.735,0.3998244471580641,-0.11083849529621403,-0.2907625764091559,0.7092307899006101,0.7343610901280933,0.4596600230485892
6.743,0.4045125729405772,-0.11263458164096818,-0.28589943867184253,0.7116053826038509,0.7339863690257129,0.4581217944198137
6.751,0.4091843426981585,-0.11442608477523741,-0.28105712622287093,0.7138720434593329,0.7335511561885335,0.4566239212214569
6.759,0.41383565501265895,-0.11620344920374492,-0.27623251588687303,0.7161203542021695,0.7330676637880202,0.4549533020253449
6.767,0.4184662916661086,-0.1179626306658399,-0.2714197593352843,0.7184031689245969,0.7325621934659425,0.45302119585388123
6.775,0.423082532410727,-0.11970687644737055,-0.2666133067293428,0.720725928622191,0.7320635390444314,0.450857050255447
6.783,0.42769428522394204,-0.1214430903312902,-0.26180951744195546,0.7230673887225776,0.7315886821693773,0.4485385920245166
6.791,0.43230976470103055,-0.12317691494166283,-0.25700678884207484,0.7254061496232871,0.7311385185271053,0.446130160123551
6.799,0.43693208964981345,-0.12491014825509517,-0.25220484379664754,0.7277345221315383,0.7307035341327559,0.4436614090893398
6.807,0.44145697250846094,-0.1266005559648562,-0.24740617329774484,0.7299649222825315,0.7301583991250498,0.44146362264855554
6.8149999999999995,0.4457846290849803,-0.12820323947117807,-0.24263470503999685,0.7319818503476196,0.7292136634209045,0.43969293509073815
6.823,0.45002177057817505,-0.1297629088913439,-0.23790619907650257,0.7339018025249522,0.7280290427563143,0.43789534104657335
6.8309999999999995,0.4542222377768166,-0.13131149379721663,-0.2332167030207941,0.7357214540422645,0.72679775994194,0.4360672878811931
6.839,0.4584182760674169,-0.1328660902228851,-0.22855584404468043,0.7374361174184973,0.7256031850638394,0.4341538107618321
6.8469999999999995,0.46262507896860594,-0.1344280200713701,-0.22391295254810384,0.7390996365180675,0.7244506005450502,0.431993392644908
6.855,0.4668428702890788,-0.13598973648841728,-0.21927904353762528,0.7407841451644521,0.7233238447764929,0.4294647249898098
6.8629999999999995,0.4710655905609986,-0.13754450171919785,-0.21464778730503387,0.7425291367810734,0.7222156631020438,0.42657684615774816
6.871,0.4752894075550236,-0.13909135496819047,-0.21001601424311644,0.7443277941428135,0.7211274889309722,0.42344136863114024
6.879,0.47951492131471785,-0.14063370389350283,-0.20538338674213197,0.7461478944035558,0.720059333457777,0.4201897008121698
6.8870000000000005,0.48374429081729176,-0.14217514217734362,-0.2007512980060362,0.7479604086854192,0.7190049271137688,0.41690986599537183
6.895,0.4879779451010897,-0.1437166269275103,-0.1961215887152994,0.7497545712696474,0.7179543286532999,0.41363239630380466
6.9030000000000005,0.49219540333169665,-0.14524937537852445,-0.19149558838397684,0.7515221321160834,0.7168872672311055,0.4104108672258988
6.911,0.49634614317923553,-0.14668117259159175,-0.18680578486294763,0.7498210309766882,0.7112587280184064,0.4272150813133928
6.9190000000000005,0.4992599979647583,-0.14770470178057948,-0.18169108365579767,0.7522893885642676,0.7085291847647346,0.41263765005412
6.927,0.5027337762751882,-0.14893563046744873,-0.17628125769328307,0.7533019373009595,0.7066975713354111,0.41993408435341006
6.9350000000000005,0.506002357175273,-0.1499964313988933,-0.17024042858829613,0.7533868318805514,0.6994492471280065,0.4113409103305399
6.943,0.509347389783307,-0.15100213073929503,-0.16344460923727588,0.753650724186262,0.6995937028790307,0.4216027346541198
6.951,0.5127974459463838,-0.15221434491039432,-0.15613176026021858,0.758418321948215,0.7000053942534352,0.4058595651474768
6.959,0.5168446772201891,-0.15368013306250106,-0.14834877261594848,0.7609691528189981,0.6992771384496752,0.39167097345262736
6.967,0.5213501004168712,-0.15529855623509192,-0.14030318259808627,0.7599731287375158,0.6979603015632536,0.40299950461299705
6.975,0.5255263245621391,-0.15691759021492757,-0.13236684321982306,0.7628800728668339,0.6978610765149034,0.3905245674276161
6.983,0.5296113944439513,-0.15844052785443807,-0.1245508638553785,0.7640730234856883,0.6954638516606719,0.38036605375685095
6.991,0.5336711808250323,-0.15983183999259687,-0.11689891558275889,0.7627040290089195,0.6925763592251668,0.3934123289556881
